!!!!SEGMENT: pl-wumfc--n2100--001-022_dobrzynski-ignacy-feliks--monbar-czyli-flibustierowie-partytura-fortepianowa-akt-iii-20-recitativo-duettino-e-poi-terzetto.krn
!!!cenid: 18xx:4205
!!!COM: Dobrzyński, Ignacy Feliks
!!!COM-rismID: pe30020642
!!!CDT: 1807/02/15-1867/10/09
!!!CNT: Polish
!!!OPR: Monbar czyli Flibustierowie - partytura fortepianowa
!!!OTL: Akt III - 20. Recitativo duettino e poi terzetto
!!!OMV: 022
!!!PDT: 1863
!!!AGN: Secular; Opera
!!!YEC: Copyright 2022 Narodowy Instytut Fryderyka Chopina (https://polishscores.org)
!!!YEM: License CC-BY-4.0 (https://creativecommons.org/licenses/by/4.0)
!!!SMS-siglum: PL-Wumfc
!!!SMS-shelfmark: N2100
!!!SMS-variant:
!!!SMS-altvar:
!!!SMS-shelfwork: 001-022 M
!!!NIFC-rismSourceID: 1001123412
!!!NIFC-rismChildID: 1001123412
!!!NIFC-islandoraID: pl-wumfc:1659
!!!URL-pdf-islandora: https://repozytorium.nifc.pl/islandora/object/pl-wumfc%3A1659/datastream/PDF/view
!!!URL-scan: https://polish.musicsources.pl/pl/lokalizacje/galeria/druki-muzyczne/11863/165 @EN{Scan on Polish Music Sources Website} @PL{Skany w portalu Dziedzictwo Muzyki Polskiej w otwartym dostępie}
!!!IIIF:
!!!ONB-nifc: Skany 0165-0170
!!!AIN: 2 bass 1 mezzo 2 piano
!!!key: f
**kern	**kern	**dynam	**kern	**text	**dynam	**kern	**text	**dynam	**kern	**text	**dynam
*part5	*part4	*	*part3	*	*	*part2	*	*	*part1	*	*
*staff5	*staff4	*	*staff3	*	*	*staff2	*	*	*staff1	*	*
*I"PIANO.	*I"PIANO.	*	*I"D. ALONZO.	*	*	*I"PEREZ	*	*	*I"ROZALIA.	*	*
*I'	*I'	*	*I'	*	*	*I'	*	*	*I'	*	*
*Ipiano	*Ipiano	*	*Ibass	*	*	*Ibass	*	*	*Imezzo	*	*
*ICklav	*ICklav	*	*ICvox	*	*	*ICvox	*	*	*ICvox	*	*
*clefF4	*clefG2	*	*clefF4	*	*	*clefF4	*	*	*clefG2	*	*
*k[b-e-a-d-]	*k[b-e-a-d-]	*	*k[b-e-a-d-]	*	*	*k[b-e-a-d-]	*	*	*k[b-e-a-d-]	*	*
*f:	*f:	*	*f:	*	*	*f:	*	*	*f:	*	*
*M4/4	*M4/4	*	*M4/4	*	*	*M4/4	*	*	*M4/4	*	*
*met(c)	*met(c)	*	*met(c)	*	*	*met(c)	*	*	*met(c)	*	*
=1	=1	=1	=1	=1	=1	=1	=1	=1	=1	=1	=1
!	!	!	!LO:TX:a:B:t=Allegro agitato.	!	!	!	!	!	!	!	!
!	!	!LO:DY:b:rj	!LO:TX:a:i:t=( D. ALONZO wpada niepostrzegając PEREZA )	!	!	!	!	!	!	!	!
8FF\	4A-< 4F</	p	1r	.	.	1ryy	.	.	1ryy	.	.
(4D-^\	.	.	.	.	.	.	.	.	.	.	.
.	4A-< 4F<^/	.	.	.	.	.	.	.	.	.	.
8C\)	.	.	.	.	.	.	.	.	.	.	.
8FF\	4A-< 4F</	.	.	.	.	.	.	.	.	.	.
(4D-^\	.	.	.	.	.	.	.	.	.	.	.
.	4A-< 4F</	.	.	.	.	.	.	.	.	.	.
8C\)	.	.	.	.	.	.	.	.	.	.	.
=2	=2	=2	=2	=2	=2	=2	=2	=2	=2	=2	=2
[1F [>1C [1AA- [1FF	16ccc\LL	f	1r	.	.	1ryy	.	.	1ryy	.	.
.	16bbn\	>	.	.	.	.	.	.	.	.	.
.	16ccc\	.	.	.	.	.	.	.	.	.	.
.	16bb-X\JJ	.	.	.	.	.	.	.	.	.	.
.	16aa-\LL	.	.	.	.	.	.	.	.	.	.
.	16gg\	.	.	.	.	.	.	.	.	.	.
.	16aa-\	.	.	.	.	.	.	.	.	.	.
.	16gg\JJ	.	.	.	.	.	.	.	.	.	.
.	16ff\LL	.	.	.	.	.	.	.	.	.	.
.	16een\	.	.	.	.	.	.	.	.	.	.
.	16ff\	.	.	.	.	.	.	.	.	.	.
.	16dd-\JJ	.	.	.	.	.	.	.	.	.	.
.	16cc\LL	.	.	.	.	.	.	.	.	.	.
.	16bn\	.	.	.	.	.	.	.	.	.	.
.	16cc\	.	.	.	.	.	.	.	.	.	.
.	16a-\JJ	]	.	.	.	.	.	.	.	.	.
=3	=3	=3	=3	=3	=3	=3	=3	=3	=3	=3	=3
8F] 8C] 8AA-] 8FF/]	4f/	.	1r	.	.	1ryy	.	.	1ryy	.	.
4D-^<\	.	.	.	.	.	.	.	.	.	.	.
.	4A-< 4F</	.	.	.	.	.	.	.	.	.	.
8C\	.	.	.	.	.	.	.	.	.	.	.
8FF\	4A-< 4F</	.	.	.	.	.	.	.	.	.	.
4D-^<\	.	.	.	.	.	.	.	.	.	.	.
.	4A-< 4F</	.	.	.	.	.	.	.	.	.	.
8C\	.	.	.	.	.	.	.	.	.	.	.
!!LO:LB:g=original
=4	=4	=4	=4	=4	=4	=4	=4	=4	=4	=4	=4
1F 1C 1AA- 1FF	16ccc\LL	f	1r	.	.	1ryy	.	.	1ryy	.	.
.	16bbn\	>	.	.	.	.	.	.	.	.	.
.	16ccc\	.	.	.	.	.	.	.	.	.	.
.	16bb-X\JJ	.	.	.	.	.	.	.	.	.	.
.	16aa-\LL	.	.	.	.	.	.	.	.	.	.
.	16gg\	.	.	.	.	.	.	.	.	.	.
.	16aa-\	.	.	.	.	.	.	.	.	.	.
.	16gg\JJ	.	.	.	.	.	.	.	.	.	.
.	16ff\LL	.	.	.	.	.	.	.	.	.	.
.	16een\	.	.	.	.	.	.	.	.	.	.
.	16ff\	.	.	.	.	.	.	.	.	.	.
.	16dd-\JJ	.	.	.	.	.	.	.	.	.	.
.	16cc\LL	.	.	.	.	.	.	.	.	.	.
.	16bn\	.	.	.	.	.	.	.	.	.	.
.	16cc\	.	.	.	.	.	.	.	.	.	.
.	16a-\JJ	]	.	.	.	.	.	.	.	.	.
=5	=5	=5	=5	=5	=5	=5	=5	=5	=5	=5	=5
4A- 4F 4D- 4BBn\	8f/	f	1r	.	.	1ryy	.	.	1ryy	.	.
.	4aa-^<\	.	.	.	.	.	.	.	.	.	.
4A- 4F 4D- 4BB\	.	.	.	.	.	.	.	.	.	.	.
.	4ff^<\	.	.	.	.	.	.	.	.	.	.
4A- 4F 4D- 4BB\	.	.	.	.	.	.	.	.	.	.	.
.	4ddn^<\	.	.	.	.	.	.	.	.	.	.
4A- 4F 4D- 4BB\	.	.	.	.	.	.	.	.	.	.	.
.	[8bn^<\	.	.	.	.	.	.	.	.	.	.
=6	=6	=6	=6	=6	=6	=6	=6	=6	=6	=6	=6
!	!	!LO:HP:b:t=dimin.	!	!	!	!	!	!	!	!	!
4A- 4F 4D- 4BBn\	8b\]	>	1r	.	.	1ryy	.	.	1ryy	.	.
.	4ddn\	.	.	.	.	.	.	.	.	.	.
4A- 4F 4D- 4BB\	.	.	.	.	.	.	.	.	.	.	.
!	!LO:SIC:v:s=4bn\	!	!	!	!	!	!	!	!	!	!
.	4b-y\	.	.	.	.	.	.	.	.	.	.
4A- 4F 4D- 4BB\	.	.	.	.	.	.	.	.	.	.	.
.	4a-/	.	.	.	.	.	.	.	.	.	.
4A- 4F 4D- 4BB\	.	.	.	.	.	.	.	.	.	.	.
.	8f/	.	.	.	.	.	.	.	.	.	.
!!LO:LB:g=original
=7	=7	=7	=7	=7	=7	=7	=7	=7	=7	=7	=7
!	!LO:SIC:v:s=[1dn [>1A-< [>1F<	!	!	!	!	!	!	!	!	!	!
[<1BBn [1BBBn	[1d- [>1A-< [>1F<	p	8F\	Plan	.	1ryy	.	.	1ryy	.	.
.	.	.	16.F\	mój	.	.	.	.	.	.	.
.	.	.	32F\	doj-	.	.	.	.	.	.	.
!	!	!	!LO:SIC:v:s=8En\	!	!	!	!	!	!	!	!
.	.	.	8E-\	-rze-	.	.	.	.	.	.	.
.	.	.	16Dn\	-wa	.	.	.	.	.	.	.
.	.	.	16D\	już	.	.	.	.	.	.	.
.	.	.	4D\	bi-	.	.	.	.	.	.	.
.	.	.	8.C/	-je	.	.	.	.	.	.	.
.	.	.	16D\	go-	.	.	.	.	.	.	.
=8	=8	=8	=8	=8	=8	=8	=8	=8	=8	=8	=8
!	!LO:SIC:v:s=1d_ 1A-<_> 1F<_>	!	!	!	!	!	!	!	!	!	!
1BB_< 1BBB_	1d-_ 1A-<_> 1F<_>	.	4C/	-dzi-	.	1ryy	.	.	1ryy	.	.
.	.	.	8BBn/	-na	.	.	.	.	.	.	.
.	.	.	8r	.	.	.	.	.	.	.	.
.	.	.	4A-\	Dzie-	.	.	.	.	.	.	.
.	.	.	8A-\	-ło	.	.	.	.	.	.	.
.	.	.	8A-\	się	.	.	.	.	.	.	.
=9	=9	=9	=9	=9	=9	=9	=9	=9	=9	=9	=9
!	!LO:S:s=1:note:problem:note-level slur	!	!	!	!	!	!	!	!	!	!
!	!LO:S:s=2:note:problem:note-level slur	!	!	!	!	!	!	!	!	!	!
!	!LO:SIC:v:s=(>1d] (>1A-<] (>1F<]	!	!	!	!	!	!	!	!	!	!
(1BB] (1BBB]	(>1d-] (>1A-<] (>1F<]	.	4A-\	zem-	.	1ryy	.	.	1ryy	.	.
.	.	.	8A-\	-sty	.	.	.	.	.	.	.
.	.	.	8A-\	za	.	.	.	.	.	.	.
.	.	.	4A-\	chwi-	.	.	.	.	.	.	.
.	.	.	8.G\	-lę	.	.	.	.	.	.	.
.	.	.	16F\	po-	.	.	.	.	.	.	.
=10	=10	=10	=10	=10	=10	=10	=10	=10	=10	=10	=10
!	!LO:S:s=1:note:problem:note-level slur	!	!	!	!	!	!	!	!	!	!
!	!LO:S:s=2:note:problem:note-level slur	!	!	!	!	!	!	!	!	!	!
4C 4CC\))	4c) 4G<) 4En</)	.	2c\	-czy-	.	1ryy	.	.	1ryy	.	.
4r	4r	.	.	.	.	.	.	.	.	.	.
2r	2r	.	4C/	-na	.	.	.	.	.	.	.
.	.	.	4r	.	.	.	.	.	.	.	.
!!LO:LB:g=original
==11	==11	==11	==11	==11	==11	==11	==11	==11	==11	==11	==11
!	!	!LO:DY:b:rj	!LO:TX:a:B:t=Vivace	!	!	!	!	!	!	!	!
8cL 8A- 8F\	16ccc\LL	ff	1r	.	.	1ryy	.	.	1ryy	.	.
.	16bb-\	.	.	.	.	.	.	.	.	.	.
8c 8A- 8F\	16aa-\	.	.	.	.	.	.	.	.	.	.
.	16gg\JJ	.	.	.	.	.	.	.	.	.	.
8c 8A- 8F\	16aa-\LL	.	.	.	.	.	.	.	.	.	.
.	16gg\	.	.	.	.	.	.	.	.	.	.
8cJ 8A- 8F\	16ff\	.	.	.	.	.	.	.	.	.	.
.	16een\JJ	.	.	.	.	.	.	.	.	.	.
8cL 8A- 8F\	16ff\LL	.	.	.	.	.	.	.	.	.	.
.	16ee-X\	.	.	.	.	.	.	.	.	.	.
8c 8A- 8F\	16dd-X\	.	.	.	.	.	.	.	.	.	.
.	16cc\JJ	.	.	.	.	.	.	.	.	.	.
8c 8A- 8F\	16b-/LL	.	.	.	.	.	.	.	.	.	.
.	16a-/	.	.	.	.	.	.	.	.	.	.
8cJ 8A- 8F\	16g/	.	.	.	.	.	.	.	.	.	.
.	16f/JJ	.	.	.	.	.	.	.	.	.	.
=12	=12	=12	=12	=12	=12	=12	=12	=12	=12	=12	=12
4c 4G 4En\	4g/	.	4c\	Tłusz-	.	1ryy	.	.	1ryy	.	.
4r	4r	.	8c\	-cze	.	.	.	.	.	.	.
.	.	.	8c\	sen	.	.	.	.	.	.	.
2r	2r	.	4c\	u-	.	.	.	.	.	.	.
.	.	.	8c\	-jął	.	.	.	.	.	.	.
.	.	.	8c\	głę-	.	.	.	.	.	.	.
=13	=13	=13	=13	=13	=13	=13	=13	=13	=13	=13	=13
8cL 8A- 8F\	16ccc\LL	.	4A-\	-bo-	.	1ryy	.	.	1ryy	.	.
.	16bb-\	.	.	.	.	.	.	.	.	.	.
8c 8A- 8F\	16aa-\	.	.	.	.	.	.	.	.	.	.
.	16gg\JJ	.	.	.	.	.	.	.	.	.	.
8c 8A- 8F\	16aa-\LL	.	8F\	-ki	.	.	.	.	.	.	.
.	16gg\	.	.	.	.	.	.	.	.	.	.
8cJ 8A- 8F\	16ff\	.	8r	.	.	.	.	.	.	.	.
.	16een\JJ	.	.	.	.	.	.	.	.	.	.
8cL 8A- 8F\	16ff\LL	.	4A-\	Sa-	.	.	.	.	.	.	.
.	16ee-X\	.	.	.	.	.	.	.	.	.	.
8c 8A- 8F\	16dd-\	.	.	.	.	.	.	.	.	.	.
.	16cc\JJ	.	.	.	.	.	.	.	.	.	.
8c 8A- 8F\	16b-/LL	.	8A-\	-ma	.	.	.	.	.	.	.
.	16a-/	.	.	.	.	.	.	.	.	.	.
8cJ 8A- 8F\	16g/	.	8A-\	o-	.	.	.	.	.	.	.
.	16f/JJ	.	.	.	.	.	.	.	.	.	.
=14	=14	=14	=14	=14	=14	=14	=14	=14	=14	=14	=14
4B- 4G\	4e-X/	.	4B-\	-patrz-	.	1ryy	.	.	1ryy	.	.
4r	4r	.	8E-\	-ność	.	.	.	.	.	.	.
.	.	.	8E-\	pro-	.	.	.	.	.	.	.
2r	2r	.	4e-\	-wa-	.	.	.	.	.	.	.
.	.	.	8d-\	-dzi	.	.	.	.	.	.	.
.	.	.	8B-\	me	.	.	.	.	.	.	.
!!LO:PB:g=original
=15	=15	=15	=15	=15	=15	=15	=15	=15	=15	=15	=15
*tremolo	*	*	*	*	*	*	*	*	*	*	*
16cLL 16A-\	4r	f	4B-\	kro-	.	1ryy	.	.	1ryy	.	.
16e-\	.	.	.	.	.	.	.	.	.	.	.
16c 16A-\	.	.	.	.	.	.	.	.	.	.	.
16e-\	.	.	.	.	.	.	.	.	.	.	.
.	(16qqee-/LL	.	.	.	.	.	.	.	.	.	.
.	16qqff/	.	.	.	.	.	.	.	.	.	.
.	16qqgg/JJ	.	.	.	.	.	.	.	.	.	.
*	*8va	*	*	*	*	*	*	*	*	*	*
16c 16A-\	4aaa-\)	.	8A-\	-ki	.	.	.	.	.	.	.
16e-\	.	.	.	.	.	.	.	.	.	.	.
16c 16A-\	.	.	8r	.	.	.	.	.	.	.	.
16e-\JJ	.	.	.	.	.	.	.	.	.	.	.
*	*X8va	*	*	*	*	*	*	*	*	*	*
16cLL 16A-\	8a-/L	.	4A-\	czo-	.	.	.	.	.	.	.
16e-\	.	.	.	.	.	.	.	.	.	.	.
*	*clefF4	*	*	*	*	*	*	*	*	*	*
16c 16A-\	16AA-/L	.	.	.	.	.	.	.	.	.	.
16e-\	16AA-/JJ	.	.	.	.	.	.	.	.	.	.
16c 16A-\	8C/L	.	8A-\	-ło	.	.	.	.	.	.	.
16e-\	.	.	.	.	.	.	.	.	.	.	.
16c 16A-\	8AA-/J	.	8A-\	kor-	.	.	.	.	.	.	.
16e-\JJ	.	.	.	.	.	.	.	.	.	.	.
*Xtremolo	*	*	*	*	*	*	*	*	*	*	*
=16	=16	=16	=16	=16	=16	=16	=16	=16	=16	=16	=16
16cLL 16A-\	8E-/L	.	4A-\	-sar-	.	1ryy	.	.	1ryy	.	.
16e-\	.	.	.	.	.	.	.	.	.	.	.
16c 16A-\	8C/J	.	.	.	.	.	.	.	.	.	.
16e-\JJ	.	.	.	.	.	.	.	.	.	.	.
*tremolo	*	*	*	*	*	*	*	*	*	*	*
16cLL 16A-\	2A-\	.	4A-\	-stwa	.	.	.	.	.	.	.
16e-\	.	.	.	.	.	.	.	.	.	.	.
16c 16A-\	.	.	.	.	.	.	.	.	.	.	.
16e-\	.	.	.	.	.	.	.	.	.	.	.
16c 16A-\	.	.	8A-\	go-	.	.	.	.	.	.	.
16e-\	.	.	.	.	.	.	.	.	.	.	.
16c 16A-\	.	.	8A-\	-niąc	.	.	.	.	.	.	.
16e-\JJ	.	.	.	.	.	.	.	.	.	.	.
*Xtremolo	*	*	*	*	*	*	*	*	*	*	*
16cLL 16A-\	(4AA-/	.	8A-\	na-	.	.	.	.	.	.	.
16e-\	.	.	.	.	.	.	.	.	.	.	.
16c 16A-\	.	.	8A-\	-szą	.	.	.	.	.	.	.
16e-\JJ	.	.	.	.	.	.	.	.	.	.	.
=17	=17	=17	=17	=17	=17	=17	=17	=17	=17	=17	=17
*tremolo	*	*	*	*	*	*	*	*	*	*	*
16d-LL 16B-\	4GG/)	.	4B-\	na-	.	1ryy	.	.	1ryy	.	.
16e-\	.	.	.	.	.	.	.	.	.	.	.
16d- 16B-\	.	.	.	.	.	.	.	.	.	.	.
16e-\	.	.	.	.	.	.	.	.	.	.	.
*	*clefG2	*	*	*	*	*	*	*	*	*	*
.	(16qqbb-/LL	.	.	.	.	.	.	.	.	.	.
.	16qqccc/	.	.	.	.	.	.	.	.	.	.
.	16qqddd-/JJ	.	.	.	.	.	.	.	.	.	.
16d- 16B-\	4eee-\)	.	8E-\	-wę	.	.	.	.	.	.	.
16e-\	.	.	.	.	.	.	.	.	.	.	.
16d- 16B-\	.	.	8r	.	.	.	.	.	.	.	.
16e-\JJ	.	.	.	.	.	.	.	.	.	.	.
*	*clefF4	*	*	*	*	*	*	*	*	*	*
16d-LL 16B-\	8E-/L	.	4B-\	w gnie-	.	.	.	.	.	.	.
16e-\	.	.	.	.	.	.	.	.	.	.	.
16d- 16B-\	16GG/L	.	.	.	.	.	.	.	.	.	.
16e-\	16GG/JJ	.	.	.	.	.	.	.	.	.	.
16d- 16B-\	8BB-/L	.	8B-\	-zdzie	.	.	.	.	.	.	.
16e-\	.	.	.	.	.	.	.	.	.	.	.
16d- 16B-\	8GG/J	.	8B-\	nam	.	.	.	.	.	.	.
16e-\JJ	.	.	.	.	.	.	.	.	.	.	.
!!LO:LB:g=original
=18	=18	=18	=18	=18	=18	=18	=18	=18	=18	=18	=18
16d-LL 16B-\	8E-/L	.	4B-\	włas-	.	1ryy	.	.	1ryy	.	.
16e-\	.	.	.	.	.	.	.	.	.	.	.
16d- 16B-\	8C/J	.	.	.	.	.	.	.	.	.	.
16e-\	.	.	.	.	.	.	.	.	.	.	.
16d- 16B-\	2G^<\	.	8B-\	-nem	.	.	.	.	.	.	.
16e-\	.	.	.	.	.	.	.	.	.	.	.
16d- 16B-\	.	.	8B-\	u-	.	.	.	.	.	.	.
16e-\JJ	.	.	.	.	.	.	.	.	.	.	.
16d-LL 16B-\	.	.	4B-\	-ła-	.	.	.	.	.	.	.
16e-\	.	.	.	.	.	.	.	.	.	.	.
16d- 16B-\	.	.	.	.	.	.	.	.	.	.	.
16e-\	.	.	.	.	.	.	.	.	.	.	.
16d- 16B-\	(4GG/	.	8E-\	-twie	.	.	.	.	.	.	.
16e-\	.	.	.	.	.	.	.	.	.	.	.
16d- 16B-\	.	.	8E-\	roz-	.	.	.	.	.	.	.
16e-\JJ	.	.	.	.	.	.	.	.	.	.	.
=19	=19	=19	=19	=19	=19	=19	=19	=19	=19	=19	=19
16cLL 16A-\	4AA-/)	.	4B-\	-pra-	.	1ryy	.	.	1ryy	.	.
16e-\	.	.	.	.	.	.	.	.	.	.	.
16c 16A-\	.	.	.	.	.	.	.	.	.	.	.
16e-\	.	.	.	.	.	.	.	.	.	.	.
*	*clefG2	*	*	*	*	*	*	*	*	*	*
.	(16qqee-/LL	.	.	.	.	.	.	.	.	.	.
.	16qqff/	.	.	.	.	.	.	.	.	.	.
.	16qqgg/JJ	.	.	.	.	.	.	.	.	.	.
16c 16A-\	4aa-\)	.	8A-\	-wę	.	.	.	.	.	.	.
16e-\	.	.	.	.	.	.	.	.	.	.	.
16c 16A-\	.	.	8r	.	.	.	.	.	.	.	.
16e-\JJ	.	.	.	.	.	.	.	.	.	.	.
*Xtremolo	*tremolo	*	*	*	*	*	*	*	*	*	*
8cL 8A-/	16a-LL 16e-/	.	4c\	Już	.	.	.	.	.	.	.
.	16c/	.	.	.	.	.	.	.	.	.	.
16AA-/L	16a- 16e-/	.	.	.	.	.	.	.	.	.	.
16AA-/JJ	16c/	.	.	.	.	.	.	.	.	.	.
8C/L	16a- 16e-/	.	8c\	przy-	.	.	.	.	.	.	.
.	16c/	.	.	.	.	.	.	.	.	.	.
8AA-/J	16a- 16e-/	.	8c\	-cza-	.	.	.	.	.	.	.
.	16c/JJ	.	.	.	.	.	.	.	.	.	.
=20	=20	=20	=20	=20	=20	=20	=20	=20	=20	=20	=20
(2GG/	16b-LL 16en/	.	4c\	-je-	.	1ryy	.	.	1ryy	.	.
.	16c/	.	.	.	.	.	.	.	.	.	.
.	16b- 16e/	.	.	.	.	.	.	.	.	.	.
.	16c/	.	.	.	.	.	.	.	.	.	.
.	16b- 16e/	.	8c\	-ni	.	.	.	.	.	.	.
.	16c/	.	.	.	.	.	.	.	.	.	.
.	16b- 16e/	.	8c\	na	.	.	.	.	.	.	.
.	16c/JJ	.	.	.	.	.	.	.	.	.	.
2C/)	16b-LL 16e/	.	4c\	ło-	.	.	.	.	.	.	.
.	16c/	.	.	.	.	.	.	.	.	.	.
.	16b- 16e/	.	.	.	.	.	.	.	.	.	.
.	16c/	.	.	.	.	.	.	.	.	.	.
.	16b- 16e/	.	8c\	-dziach	.	.	.	.	.	.	.
.	16c/	.	.	.	.	.	.	.	.	.	.
.	16b- 16e/	.	8c\	Hi-	.	.	.	.	.	.	.
.	16c/JJ	.	.	.	.	.	.	.	.	.	.
*	*Xtremolo	*	*	*	*	*	*	*	*	*	*
=21	=21	=21	=21	=21	=21	=21	=21	=21	=21	=21	=21
8FF/	8a- 8f/	.	4A-\	-szpa-	.	1ryy	.	.	1ryy	.	.
16A-LL 16F\	8r	.	.	.	.	.	.	.	.	.	.
16c\JJ	.	.	.	.	.	.	.	.	.	.	.
*	*8va	*	*	*	*	*	*	*	*	*	*
.	(16qqccc/LL	.	.	.	.	.	.	.	.	.	.
.	16qqdddn/	.	.	.	.	.	.	.	.	.	.
.	16qqeeen/JJ	.	.	.	.	.	.	.	.	.	.
16A-LL 16F\	4fff\)	sf	8F\	-nie	.	.	.	.	.	.	.
16c\	.	.	.	.	.	.	.	.	.	.	.
16A- 16F\	.	.	8A-\	wśród	.	.	.	.	.	.	.
16c\JJ	.	.	.	.	.	.	.	.	.	.	.
*	*X8va	*	*	*	*	*	*	*	*	*	*
*	*tremolo	*	*	*	*	*	*	*	*	*	*
8F/L	16fLL 16c/	.	4.A-\	skał,	.	.	.	.	.	.	.
.	16A-/	.	.	.	.	.	.	.	.	.	.
16FF/L	16f 16c/	.	.	.	.	.	.	.	.	.	.
16FF/JJ	16A-/	.	.	.	.	.	.	.	.	.	.
8AA-/L	16f 16c/	.	.	.	.	.	.	.	.	.	.
.	16A-/	.	.	.	.	.	.	.	.	.	.
8FF/J	16f 16c/	.	8A-\	na	.	.	.	.	.	.	.
.	16A-/JJ	.	.	.	.	.	.	.	.	.	.
!!LO:LB:g=original
=22	=22	=22	=22	=22	=22	=22	=22	=22	=22	=22	=22
(2EE-/	16g-XLL 16c/	.	4A-\	mo-	.	1ryy	.	.	1ryy	.	.
.	16A-/	.	.	.	.	.	.	.	.	.	.
.	16g- 16c/	.	.	.	.	.	.	.	.	.	.
.	16A-/	.	.	.	.	.	.	.	.	.	.
.	16g- 16c/	.	8A-\	-je	.	.	.	.	.	.	.
.	16A-/	.	.	.	.	.	.	.	.	.	.
.	16g- 16c/	.	8A-\	cze-	.	.	.	.	.	.	.
.	16A-/JJ	.	.	.	.	.	.	.	.	.	.
2AA-/)	16g-LL 16c/	.	4A-\	-ka-	.	.	.	.	.	.	.
.	16A-/	.	.	.	.	.	.	.	.	.	.
.	16g- 16c/	.	.	.	.	.	.	.	.	.	.
.	16A-/	.	.	.	.	.	.	.	.	.	.
.	16g- 16c/	.	8B-\	-ją	.	.	.	.	.	.	.
.	16A-/	.	.	.	.	.	.	.	.	.	.
.	16g- 16c/	.	8c\	we-	.	.	.	.	.	.	.
.	16A-/JJ	.	.	.	.	.	.	.	.	.	.
*	*Xtremolo	*	*	*	*	*	*	*	*	*	*
=23	=23	=23	=23	=23	=23	=23	=23	=23	=23	=23	=23
4DD-/	4f 4d- 4A-/	.	4d-\	-zwa-	.	1ryy	.	.	1ryy	.	.
4r	4r	.	8D-\	-nie	.	.	.	.	.	.	.
.	.	.	8r	.	.	.	.	.	.	.	.
2r	2r	.	4d-\	Chci-	.	.	.	.	.	.	.
.	.	.	8d-\	-wi	.	.	.	.	.	.	.
.	.	.	8d-\	krwi	.	.	.	.	.	.	.
=24	=24	=24	=24	=24	=24	=24	=24	=24	=24	=24	=24
*tremolo	*	*	*	*	*	*	*	*	*	*	*
(16DD-/LL	[1dd- [1a- [1f [1d-	ff	4d-\	wro-	.	1ryy	.	.	1ryy	.	.
16CC/	.	.	.	.	.	.	.	.	.	.	.
16DD-/	.	.	.	.	.	.	.	.	.	.	.
16CC/	.	.	.	.	.	.	.	.	.	.	.
16DD-/	.	.	4d-\	-ga	.	.	.	.	.	.	.
16CC/	.	.	.	.	.	.	.	.	.	.	.
16DD-/	.	.	.	.	.	.	.	.	.	.	.
16CC/JJ)	.	.	.	.	.	.	.	.	.	.	.
(16DD-/LL	.	.	8d-\	ze-	.	.	.	.	.	.	.
16CC/	.	.	.	.	.	.	.	.	.	.	.
16DD-/	.	.	8d-\	-msty	.	.	.	.	.	.	.
16CC/	.	.	.	.	.	.	.	.	.	.	.
16DD-/	.	.	8d-\	i	.	.	.	.	.	.	.
16CC/	.	.	.	.	.	.	.	.	.	.	.
16DD-/	.	.	8d-\	wa-	.	.	.	.	.	.	.
16CC/JJ)	.	.	.	.	.	.	.	.	.	.	.
*Xtremolo	*	*	*	*	*	*	*	*	*	*	*
=25	=25	=25	=25	=25	=25	=25	=25	=25	=25	=25	=25
4DD-/	4dd-] 4a-] 4f] 4d-/]	.	4d-\	-wrzy-	.	1ryy	.	.	1ryy	.	.
4r	4r	.	8D-\	-nu	.	.	.	.	.	.	.
.	.	.	8r	.	.	.	.	.	.	.	.
2r	2r	.	4B-\	chwi-	.	.	.	.	.	.	.
.	.	.	8B-\	-wi	.	.	.	.	.	.	.
.	.	.	8B-\	krwi	.	.	.	.	.	.	.
!!LO:LB:g=original
=26	=26	=26	=26	=26	=26	=26	=26	=26	=26	=26	=26
*tremolo	*	*	*	*	*	*	*	*	*	*	*
!	!LO:SIC:v:s=[1gg-X [1dd- [1b- [1g-	!LO:DY:b:rj	!	!	!	!	!	!	!	!	!
(16GG-X/LL	[1gg-X [1dd- [1b- [1g	ff	4B-\	wro-	.	1ryy	.	.	1ryy	.	.
16FF/	.	.	.	.	.	.	.	.	.	.	.
16GG-/	.	.	.	.	.	.	.	.	.	.	.
16FF/	.	.	.	.	.	.	.	.	.	.	.
16GG-/	.	.	4B-\	-ga	.	.	.	.	.	.	.
16FF/	.	.	.	.	.	.	.	.	.	.	.
16GG-/	.	.	.	.	.	.	.	.	.	.	.
16FF/JJ)	.	.	.	.	.	.	.	.	.	.	.
(16GG-/LL	.	.	8B-\	ze-	.	.	.	.	.	.	.
16FF/	.	.	.	.	.	.	.	.	.	.	.
16GG-/	.	.	8B-\	-msty	.	.	.	.	.	.	.
16FF/	.	.	.	.	.	.	.	.	.	.	.
16GG-/	.	.	8B-\	i	.	.	.	.	.	.	.
16FF/	.	.	.	.	.	.	.	.	.	.	.
16GG-/	.	.	8B-\	wa-	.	.	.	.	.	.	.
16FF/JJ)	.	.	.	.	.	.	.	.	.	.	.
*Xtremolo	*	*	*	*	*	*	*	*	*	*	*
=27	=27	=27	=27	=27	=27	=27	=27	=27	=27	=27	=27
!	!LO:SIC:v:s=4gg-] 4dd-] 4b-] 4g-\]	!	!	!	!	!	!	!	!	!	!
4GG-X/	4gg-] 4dd-] 4b-] 4g\]	.	4B-\	-wrzy-	.	1ryy	.	.	1ryy	.	.
4r	4r	.	8G-X\	-nu	.	.	.	.	.	.	.
.	.	.	8r	.	.	.	.	.	.	.	.
2r	2r	.	4B-\	niech-	.	.	.	.	.	.	.
.	.	.	8B-\	-że	.	.	.	.	.	.	.
.	.	.	8B-\	to	.	.	.	.	.	.	.
=28	=28	=28	=28	=28	=28	=28	=28	=28	=28	=28	=28
4A- 4AA-\	4ee- 4cc 4a-\	.	4A-\	has-	.	1ryy	.	.	1ryy	.	.
4r	4r	.	4A-\	-ło	.	.	.	.	.	.	.
4An 4AAn\	4ccc 4ff 4ee- 4cc\	.	8An\	wo-	.	.	.	.	.	.	.
.	.	.	8A\	-ła	.	.	.	.	.	.	.
4r	4r	.	8A\	ich	.	.	.	.	.	.	.
.	.	.	8A\	do	.	.	.	.	.	.	.
!!LO:LB:g=original
=29	=29	=29	=29	=29	=29	=29	=29	=29	=29	=29	=29
4B- 4BB-\	4bb- 4ff 4dd- 4b-\	sf	4c\	czy-	.	1ryy	.	.	1ryy	.	.
4r	4r	.	8B-\	-nu	.	.	.	.	.	.	.
.	.	.	8r	.	.	.	.	.	.	.	.
4B- 4BB-\	4bb- 4gg 4dd-\	sf	4d-\	Niech-	.	.	.	.	.	.	.
4r	4r	.	8d-\	-że	.	.	.	.	.	.	.
.	.	.	8d-\	to	.	.	.	.	.	.	.
=30	=30	=30	=30	=30	=30	=30	=30	=30	=30	=30	=30
4c 4C\	4aa- 4ff 4cc\	sf	4c\	ha-	.	1ryy	.	.	1ryy	.	.
4r	4r	.	4c\	-sło	.	.	.	.	.	.	.
*	*8va	*	*	*	*	*	*	*	*	*	*
4C 4CC/	4eeen 4ccc 4bb- 4gg\	sf	8c\	wo-	.	.	.	.	.	.	.
*	*X8va	*	*	*	*	*	*	*	*	*	*
.	.	.	8c\	-ła	.	.	.	.	.	.	.
4r	4r	.	8c\	ich	.	.	.	.	.	.	.
.	.	.	8c\	do	.	.	.	.	.	.	.
=31	=31	=31	=31	=31	=31	=31	=31	=31	=31	=31	=31
*	*8va	*	*	*	*	*	*	*	*	*	*
4F 4FF/	4fff 4ccc 4aa- 4ff\	.	4c\	czy-	.	1ryy	.	.	1ryy	.	.
*	*X8va	*	*	*	*	*	*	*	*	*	*
4FF 4FFF/	4f/	.	4F\	-nu	.	.	.	.	.	.	.
!	!LO:TX:b:i:t=lunga pausa	!	!LO:TX:b:i:t=Przywięzuję do jednej z roz-\nrzuconych pożiemi włóczni, \nu krytą podsuknią czerwoną\nchorągiew i zatyka jąna skale.	!	!	!	!	!	!	!	!
2r;	2r;	.	2r;	.	.	.	.	.	.	.	.
!!LO:PB:g=original
=32	=32	=32	=32	=32	=32	=32	=32	=32	=32	=32	=32
*clefG2	*	*	*	*	*	*	*	*	*	*	*
*tremolo	*	*	*	*	*	*	*	*	*	*	*
!	!LO:TX:a:B:t=Allegro moderato	!	!	!	!	!	!	!	!	!	!
!LO:TX:t+P:problem:klucz po znakach przykluczowych	!LO:TX:a:t=Clar.	!	!	!	!	!	!	!	!	!	!
8a-L 8f 8d-/	4r	p	1ryy	.	.	1ryy	.	.	1ryy	.	.
8a- 8f 8d-/	.	.	.	.	.	.	.	.	.	.	.
!	!LO:TX:b:i:t=espressione	!	!	!	!	!	!	!	!	!	!
8a- 8f 8d-/	([4ff\	<	.	.	.	.	.	.	.	.	.
8a-J 8f 8d-/	.	.	.	.	.	.	.	.	.	.	.
8a-L 8f 8d-/	8ff\L]	.	.	.	.	.	.	.	.	.	.
8a- 8f 8d-/	8gg-X\	.	.	.	.	.	.	.	.	.	.
8a- 8f 8d-/	8ggn\	.	.	.	.	.	.	.	.	.	.
8a-J 8f 8d-/	8aa-\J	[	.	.	.	.	.	.	.	.	.
=33	=33	=33	=33	=33	=33	=33	=33	=33	=33	=33	=33
8a-L 8f 8d-/	8aa-\)	.	1ryy	.	.	1ryy	.	.	1ryy	.	.
*	*clefF4	*	*	*	*	*	*	*	*	*	*
!	!LO:TX:a:i:t=( Po zatknięciu chorągwi )	!	!	!	!	!	!	!	!	!	!
8a- 8f 8d-/	16D-\LL	.	.	.	.	.	.	.	.	.	.
.	16D-\JJ	.	.	.	.	.	.	.	.	.	.
8a- 8f 8d-/	8F\L	.	.	.	.	.	.	.	.	.	.
8a-J 8f 8d-/	8D-\J	.	.	.	.	.	.	.	.	.	.
8a-L 8f 8d-/	4A-\	.	.	.	.	.	.	.	.	.	.
8a- 8f 8d-/	.	.	.	.	.	.	.	.	.	.	.
8a- 8f 8d-/	(4D-\	.	.	.	.	.	.	.	.	.	.
8a-J 8f 8d-/	.	.	.	.	.	.	.	.	.	.	.
=34	=34	=34	=34	=34	=34	=34	=34	=34	=34	=34	=34
8a-L 8g-X 8e-/	4C/)	.	1ryy	.	.	1ryy	.	.	1ryy	.	.
8a- 8g- 8e-/	.	.	.	.	.	.	.	.	.	.	.
*	*clefG2	*	*	*	*	*	*	*	*	*	*
8a- 8g- 8e-/	([4ee-\	<	.	.	.	.	.	.	.	.	.
8a-J 8g- 8e-/	.	.	.	.	.	.	.	.	.	.	.
8a-L 8g- 8e-/	8ee-\L]	.	.	.	.	.	.	.	.	.	.
8a- 8g- 8e-/	8ff\	.	.	.	.	.	.	.	.	.	.
8a- 8g- 8e-/	8gg-X\	.	.	.	.	.	.	.	.	.	.
8a-J 8g- 8e-/	8ggn\J	[[	.	.	.	.	.	.	.	.	.
=35	=35	=35	=35	=35	=35	=35	=35	=35	=35	=35	=35
!LO:SIC:v:s=8a-L 8g- 8e-/	!	!	!	!	!	!	!	!	!	!	!
8a-L 8g 8e-/	8aa-\)	.	1ryy	.	.	1ryy	.	.	1ryy	.	.
*	*clefF4	*	*	*	*	*	*	*	*	*	*
!LO:SIC:v:s=8a- 8g- 8e-/	!	!	!	!	!	!	!	!	!	!	!
8a- 8g 8e-/	16C/LL	.	.	.	.	.	.	.	.	.	.
.	16C/JJ	.	.	.	.	.	.	.	.	.	.
!LO:SIC:v:s=8a- 8g- 8e-/	!	!	!	!	!	!	!	!	!	!	!
8a- 8g 8e-/	8E-\L	.	.	.	.	.	.	.	.	.	.
!LO:SIC:v:s=8a-J 8g- 8e-/	!	!	!	!	!	!	!	!	!	!	!
8a-J 8g 8e-/	8C\J	.	.	.	.	.	.	.	.	.	.
!LO:SIC:v:s=8a-L 8g- 8e-/	!	!	!	!	!	!	!	!	!	!	!
8a-L 8g 8e-/	(4A-\	.	.	.	.	.	.	.	.	.	.
!LO:SIC:v:s=8a- 8g- 8e-/	!	!	!	!	!	!	!	!	!	!	!
8a- 8g 8e-/	.	.	.	.	.	.	.	.	.	.	.
!LO:SIC:v:s=8a- 8g- 8e-/	!	!	!	!	!	!	!	!	!	!	!
8a- 8g 8e-/	4C/	.	.	.	.	.	.	.	.	.	.
!LO:SIC:v:s=8a-J 8g- 8e-/	!	!	!	!	!	!	!	!	!	!	!
8a-J 8g 8e-/	.	.	.	.	.	.	.	.	.	.	.
=36	=36	=36	=36	=36	=36	=36	=36	=36	=36	=36	=36
8a-L 8f 8d-/	4D-\)	.	1ryy	.	.	1ryy	.	.	1ryy	.	.
8a- 8f 8d-/	.	.	.	.	.	.	.	.	.	.	.
*	*clefG2	*	*	*	*	*	*	*	*	*	*
!	!LO:TX:b:t=Flau.	!	!	!	!	!	!	!	!	!	!
8a- 8f 8d-/	([4ff\	<	.	.	.	.	.	.	.	.	.
8a-J 8f 8d-/	.	.	.	.	.	.	.	.	.	.	.
8a-L 8f 8d-/	8ff\L]	.	.	.	.	.	.	.	.	.	.
8a- 8f 8d-/	8gg-X\	.	.	.	.	.	.	.	.	.	.
8a- 8f 8d-/	8ggn\	.	.	.	.	.	.	.	.	.	.
8a-J 8f 8d-/	8aa-\J	[[	.	.	.	.	.	.	.	.	.
=37	=37	=37	=37	=37	=37	=37	=37	=37	=37	=37	=37
8anL 8f 8e- 8c/	8aan\)	.	1ryy	.	.	1ryy	.	.	1ryy	.	.
*	*clefF4	*	*	*	*	*	*	*	*	*	*
8a 8f 8e- 8c/	16FF/LL	.	.	.	.	.	.	.	.	.	.
.	16FF/JJ	.	.	.	.	.	.	.	.	.	.
8a 8f 8e- 8c/	8AAn/L	.	.	.	.	.	.	.	.	.	.
8aJ 8f 8e- 8c/	8FF/J	.	.	.	.	.	.	.	.	.	.
8aL 8f 8e- 8c/	4C/	.	.	.	.	.	.	.	.	.	.
8a 8f 8e- 8c/	.	.	.	.	.	.	.	.	.	.	.
8a 8f 8e- 8c/	(4FF/	.	.	.	.	.	.	.	.	.	.
8aJ 8f 8e- 8c/	.	.	.	.	.	.	.	.	.	.	.
*Xtremolo	*	*	*	*	*	*	*	*	*	*	*
!!LO:LB:g=original
=38	=38	=38	=38	=38	=38	=38	=38	=38	=38	=38	=38
!	!	!	!	!	!	!LO:TX:a:B:t=PEREZ.	!	!	!	!	!
8b-L 8f 8d- 8B-/	4BB-/)	.	1ryy	.	.	1r	.	.	1ryy	.	.
8b-J 8f 8d- 8B-/	.	.	.	.	.	.	.	.	.	.	.
*tremolo	*clefG2	*	*	*	*	*	*	*	*	*	*
!	!LO:TX:b:t=Flau.	!	!	!	!	!	!	!	!	!	!
8fL 8d- 8B-/	([4bb-\	.	.	.	.	.	.	.	.	.	.
8f 8d- 8B-/	.	.	.	.	.	.	.	.	.	.	.
8f 8d- 8B-/	8bb-\L]	.	.	.	.	.	.	.	.	.	.
8f 8d- 8B-/	8bbn\	.	.	.	.	.	.	.	.	.	.
8f 8d- 8B-/	8ccc\	.	.	.	.	.	.	.	.	.	.
8fJ 8d- 8B-/	8ddd-\J	.	.	.	.	.	.	.	.	.	.
=39	=39	=39	=39	=39	=39	=39	=39	=39	=39	=39	=39
8e-L 8d- 8B-/	8gg\)	.	1ryy	.	.	1r	.	.	1ryy	.	.
*	*clefF4	*	*	*	*	*	*	*	*	*	*
8e- 8d- 8B-/	16GG/LL	.	.	.	.	.	.	.	.	.	.
.	16GG/JJ	.	.	.	.	.	.	.	.	.	.
8e- 8d- 8B-/	8BB-/L	.	.	.	.	.	.	.	.	.	.
8e-J 8d- 8B-/	8GG/J	.	.	.	.	.	.	.	.	.	.
8e-L 8d- 8B-/	4E-\	.	.	.	.	.	.	.	.	.	.
8e- 8d- 8B-/	.	.	.	.	.	.	.	.	.	.	.
8e- 8d- 8B-/	(4EE-/	.	.	.	.	.	.	.	.	.	.
8e-J 8d- 8B-/	.	.	.	.	.	.	.	.	.	.	.
*Xtremolo	*	*	*	*	*	*	*	*	*	*	*
=40	=40	=40	=40	=40	=40	=40	=40	=40	=40	=40	=40
4e- 4c 4A-/	4AA-/)	.	1ryy	.	.	2r	.	.	1ryy	.	.
*clefF4	*clefG2	*	*	*	*	*	*	*	*	*	*
4A- 4AA-\	4aa- 4ee- 4cc\	sf	.	.	.	.	.	.	.	.	.
2r	2r	.	.	.	.	4r	.	.	.	.	.
.	.	.	.	.	.	8r	.	.	.	.	.
!	!	!	!	!	!	!LO:TX:a:i:t=PEREZ przybiegając )	!	!	!	!	!
.	.	.	.	.	.	8A-\	Co	.	.	.	.
=41	=41	=41	=41	=41	=41	=41	=41	=41	=41	=41	=41
4r	4r	.	1ryy	.	.	4d-\	zna-	.	1ryy	.	.
!	!	!LO:DY:b:rj	!	!	!	!	!	!	!	!	!
4D- 4DD-/	8.d-/L	f	.	.	.	4d-\	-czy	.	.	.	.
.	16d-/Jk	.	.	.	.	.	.	.	.	.	.
4F 4FF/	8.f/L	.	.	.	.	4d-\	krwa-	.	.	.	.
.	16f/Jk	.	.	.	.	.	.	.	.	.	.
4A- 4AA-\	8.a-/L	.	.	.	.	8d-\	-we	.	.	.	.
.	.	.	.	.	.	8d-\	to	.	.	.	.
.	16a-/Jk	.	.	.	.	.	.	.	.	.	.
=42	=42	=42	=42	=42	=42	=42	=42	=42	=42	=42	=42
4.d- 4.D-\	4.dd-\	.	1ryy	.	.	2d-\	zna-	.	1ryy	.	.
8A- 8AA-\	8a-/	.	.	.	.	.	.	.	.	.	.
4.d- 4.D-\	4.dd-\	.	.	.	.	4D-\	-mie	.	.	.	.
.	.	.	.	.	.	4r	.	.	.	.	.
8A- 8AA-\	8a-/	.	.	.	.	.	.	.	.	.	.
!!LO:LB:g=original
=43	=43	=43	=43	=43	=43	=43	=43	=43	=43	=43	=43
4.d- 4.D-\	4dd-\	.	1ryy	.	.	4d-\	Stój!	.	1ryy	.	.
.	4r	.	.	.	.	4r	.	.	.	.	.
(8F\	.	>	.	.	.	.	.	.	.	.	.
8A-\L	2r	.	.	.	.	2r	.	.	.	.	.
8D-\	.	.	.	.	.	.	.	.	.	.	.
8F\	.	.	.	.	.	.	.	.	.	.	.
8BB-\J)	.	]	.	.	.	.	.	.	.	.	.
=44	=44	=44	=44	=44	=44	=44	=44	=44	=44	=44	=44
*tremolo	*	*	*	*	*	*	*	*	*	*	*
(8E-L 8C 8AAn\	8r	.	1ryy	.	.	4F\	to	.	1ryy	.	.
!	!LO:TX:a:rj:t=Ob.	!	!	!	!	!	!	!	!	!	!
8F\	(8ccc\L	p	.	.	.	.	.	.	.	.	.
8E- 8C 8AA\	8aan\	>	.	.	.	4F\	zbyt	.	.	.	.
8F\J	8ff\J	.	.	.	.	.	.	.	.	.	.
8E-L 8C 8AA\	8ee-\L	.	.	.	.	4F\	wiel-	.	.	.	.
8F\	8cc\	.	.	.	.	.	.	.	.	.	.
8E- 8C 8AA\	8an\	.	.	.	.	8F\	-ka	.	.	.	.
8F\J	8f\J)	]	.	.	.	8F\	o-	.	.	.	.
=45	=45	=45	=45	=45	=45	=45	=45	=45	=45	=45	=45
8D-L 8AA-\	8r	.	1ryy	.	.	2F\	-fia-	.	1ryy	.	.
!	!LO:TX:a:rj:t=Flau.	!	!	!	!	!	!	!	!	!	!
8F\	(8ddd-\L	>	.	.	.	.	.	.	.	.	.
8D- 8AA-\	8bb-\	.	.	.	.	.	.	.	.	.	.
8F\J	8ff\J	.	.	.	.	.	.	.	.	.	.
8D-L 8AA-\	8dd-/L	.	.	.	.	4F\	-ra	.	.	.	.
8F\	8b-/	.	.	.	.	.	.	.	.	.	.
8D- 8AA-\	8f/	.	.	.	.	4r	.	.	.	.	.
8F\J)	8d-/J)	]	.	.	.	.	.	.	.	.	.
=46	=46	=46	=46	=46	=46	=46	=46	=46	=46	=46	=46
(8FL 8Dn 8BBn\	8r	.	1ryy	.	.	4G\	Dziś	.	1ryy	.	.
!	!LO:TX:a:rj:t=Clar.	!	!	!	!	!	!	!	!	!	!
8G\	(8ggn\L	>	.	.	.	.	.	.	.	.	.
8F 8D 8BB\	8ff\	.	.	.	.	8G\	wy-	.	.	.	.
8G\J	8ddn\J	.	.	.	.	8G\	-spy	.	.	.	.
8FL 8D 8BB\	8bn/L	.	.	.	.	4G\	strze-	.	.	.	.
8G\	8g/	.	.	.	.	.	.	.	.	.	.
8F 8D 8BB\	8f/	.	.	.	.	8G\	-że	.	.	.	.
8G\J	8dn/J)	]	.	.	.	8G\	me	.	.	.	.
!!LO:LB:g=original
=47	=47	=47	=47	=47	=47	=47	=47	=47	=47	=47	=47
8E-L 8C\	8r	.	1ryy	.	.	2G\	ra-	.	1ryy	.	.
!	!LO:TX:a:rj:t=Ob.	!	!	!	!	!	!	!	!	!	!
8G\	(8ccc\L	.	.	.	.	.	.	.	.	.	.
8E- 8C\	8gg\	>	.	.	.	.	.	.	.	.	.
8G\J	8ee-\J	.	.	.	.	.	.	.	.	.	.
8E-L 8C\	8cc/L	.	.	.	.	4G\	-mie	.	.	.	.
8G\	8g/	.	.	.	.	.	.	.	.	.	.
8E- 8C\	8e-/	.	.	.	.	8r	.	.	.	.	.
8G\J)	8c/J)	]	.	.	.	8G\	czyż	.	.	.	.
=48	=48	=48	=48	=48	=48	=48	=48	=48	=48	=48	=48
(8GL 8En 8C#X\	8r	.	1ryy	.	.	4An\	zdra-	.	1ryy	.	.
!	!LO:TX:a:rj:t=Clar.	!	!	!	!	!	!	!	!	!	!
8An\	(8aan\L	>	.	.	.	.	.	.	.	.	.
8G 8E 8C#\	8gg\	.	.	.	.	4A\	-dzę	.	.	.	.
8AnX\J	8een\J	.	.	.	.	.	.	.	.	.	.
8GL 8E 8C#\	8cc#X/L	.	.	.	.	4A\	u-	.	.	.	.
8A\	8an/	.	.	.	.	.	.	.	.	.	.
8G 8E 8C#\	8g/	.	.	.	.	8A\	-fność	.	.	.	.
8A\J	8en/J)	]	.	.	.	8A\	Mon-	.	.	.	.
=49	=49	=49	=49	=49	=49	=49	=49	=49	=49	=49	=49
!LO:SIC:v:s=8FnL 8Dn\	!	!	!	!	!	!	!	!	!	!	!
8FnL 8D-\	8r	.	1ryy	.	.	2An\	-ba-	.	1ryy	.	.
!	!LO:TX:a:rj:t=Flau.	!	!	!	!	!	!	!	!	!	!
8An\	(8dddn\L	>	.	.	.	.	.	.	.	.	.
!LO:SIC:v:s=8F 8D\	!	!	!	!	!	!	!	!	!	!	!
8F 8D-\	8aan\	.	.	.	.	.	.	.	.	.	.
8AnX\J	8ff\J	.	.	.	.	.	.	.	.	.	.
!LO:SIC:v:s=8FL 8D\	!	!	!	!	!	!	!	!	!	!	!
8FL 8D-\	8ddn/L	.	.	.	.	4Dn\	-ra	.	.	.	.
8A\	8an/	.	.	.	.	.	.	.	.	.	.
!LO:SIC:v:s=8F 8D\	!	!	!	!	!	!	!	!	!	!	!
8F 8D-\	8f/	.	.	.	.	4r	.	.	.	.	.
8A\J)	8dn/J)	]	.	.	.	.	.	.	.	.	.
*Xtremolo	*	*	*	*	*	*	*	*	*	*	*
=50	=50	=50	=50	=50	=50	=50	=50	=50	=50	=50	=50
!	!LO:S:s=1:note:problem:note-level slur	!	!	!	!	!	!	!	!	!	!
!LO:S:s=1:note:problem:note-level slur	!LO:S:s=2:note:problem:note-level slur	!	!	!	!	!	!	!	!	!	!
!LO:S:s=2:note:problem:note-level slur	!LO:S:s=3:note:problem:note-level slur	!	!	!	!	!	!	!	!	!	!
(<1BB- (<1BBB-	(1dn (>1G#X< (>1Dn<	.	1ryy	.	.	4F\	czyż	.	1ryy	.	.
.	.	.	.	.	.	8F\	zdra-	.	.	.	.
.	.	.	.	.	.	8F\	-dze	.	.	.	.
.	.	.	.	.	.	4F\	u-	.	.	.	.
.	.	.	.	.	.	8En\	-fność	.	.	.	.
.	.	.	.	.	.	8Dn\	Mon-	.	.	.	.
!!LO:LB:g=original
=51	=51	=51	=51	=51	=51	=51	=51	=51	=51	=51	=51
!	!LO:S:s=1:note:problem:note-level slur	!	!	!	!	!	!	!	!	!	!
!LO:S:s=1:note:problem:note-level slur	!LO:S:s=2:note:problem:note-level slur	!	!LO:TX:t=P:problem:partia D. Alonzo. nad partią Pereza	!	!	!	!	!	!	!	!
!LO:S:s=2:note:problem:note-level slur	!LO:S:s=3:note:problem:note-level slur	!	!LO:TX:a:B:t=D. ALONZO.	!	!	!LO:TX:a:B:t=PEREZ.	!	!	!	!	!
4AAn) 4AAAn\)	4c#X) 4An<) 4En</)	.	4r	.	.	4An\	-ba-	.	1ryy	.	.
!	!LO:TX:b:B:t=Recit&colon;	!	!	!	!	!	!	!	!	!	!
4r	4r	.	8r	.	.	4AAn/	-ra	.	.	.	.
.	.	.	8An\	Co	.	.	.	.	.	.	.
2r	2r	.	4A\	sły-	.	2r	.	.	.	.	.
.	.	.	8En\	-szę	.	.	.	.	.	.	.
.	.	.	8r	.	.	.	.	.	.	.	.
=52	=52	=52	=52	=52	=52	=52	=52	=52	=52	=52	=52
1r	1r	.	4c#X\	ja-	.	1r	.	.	1ryy	.	.
.	.	.	8c#\	-kiż	.	.	.	.	.	.	.
.	.	.	8c#\	nie-	.	.	.	.	.	.	.
.	.	.	4c#\	-zna-	.	.	.	.	.	.	.
.	.	.	4c#\	-my	.	.	.	.	.	.	.
=53	=53	=53	=53	=53	=53	=53	=53	=53	=53	=53	=53
1r	1r	.	4c#X\	po-	.	1r	.	.	1ryy	.	.
.	.	.	8An\	-wód	.	.	.	.	.	.	.
.	.	.	8A\	téj	.	.	.	.	.	.	.
.	.	.	4B-\	na-	.	.	.	.	.	.	.
.	.	.	8B-\	-głéj	.	.	.	.	.	.	.
.	.	.	8B-\	prze-	.	.	.	.	.	.	.
=54	=54	=54	=54	=54	=54	=54	=54	=54	=54	=54	=54
!	!LO:TX:a:B:t=a tempo	!LO:DY:b:rj	!	!	!	!	!	!	!	!	!
2.C#X 2.CC#X\	2.en 2.B-< 2.G</	fz	4B-\	-mia-	.	2r	.	.	1ryy	.	.
.	.	>	4C#X/	-ny	.	.	.	.	.	.	.
.	.	.	2r	.	.	4r	.	.	.	.	.
4r	4r	]	.	.	.	8An\	Głos	.	.	.	.
.	.	.	.	.	.	8A\	su-	.	.	.	.
!!LO:PB:g=original
=55	=55	=55	=55	=55	=55	=55	=55	=55	=55	=55	=55
!	!	!	!	!	!	!LO:TX:a:B:t=PERES.	!	!	!	!	!
4Dn 4DDn\	4dn 4F</	.	1ryy	.	.	4dn\	-mie-	.	1ryy	.	.
4En 4EEn\	4d 4G</	.	.	.	.	4Dn\	-nia	.	.	.	.
4E#X 4EE#X\	4d 4G#X</	.	.	.	.	4r	.	.	.	.	.
!	!LO:SIC:v:s=4d 4An</	!	!	!	!	!	!	!	!	!	!
4F#X 4FF#X\	4d 4A-</	.	.	.	.	8.d\	czy-	.	.	.	.
.	.	.	.	.	.	16d\	-jéj	.	.	.	.
=56	=56	=56	=56	=56	=56	=56	=56	=56	=56	=56	=56
4G 4GG\	4dn 4B-</	.	1ryy	.	.	2dn\	du-	.	1ryy	.	.
4AAn 4AAAn\	4d 4F#X</	.	.	.	.	.	.	.	.	.	.
4BB- 4BBB-\	4d 4G</	.	.	.	.	4G\	-szy	.	.	.	.
4BB- 4BBB-\	4d 4G#X< 4Fn</	.	.	.	.	8G#X\	w o-	.	.	.	.
.	.	.	.	.	.	8G#\	-bec	.	.	.	.
=57	=57	=57	=57	=57	=57	=57	=57	=57	=57	=57	=57
4AAn 4AAAn\	4dn 4An< 4F</	.	1ryy	.	.	4An\	zdra-	.	1ryy	.	.
4r	4r	.	.	.	.	4A\	-dy	.	.	.	.
4AA 4AAA/	4ccc#X 4gg 4een\	sf	.	.	.	4.B-X\	w proch	.	.	.	.
4r	4r	.	.	.	.	.	.	.	.	.	.
.	.	.	.	.	.	8A\	nie	.	.	.	.
=58	=58	=58	=58	=58	=58	=58	=58	=58	=58	=58	=58
4Dn 4DDn/	4dddn 4ff 4ddn\	.	1ryy	.	.	4An\	skru-	.	1ryy	.	.
4r	4r	.	.	.	.	4Dn\	-szy	.	.	.	.
8r	2r	.	.	.	.	2r	.	.	.	.	.
!	!	!LO:DY:rj:b=2	!	!	!	!	!	!	!	!	!
(8D/L	.	p	.	.	.	.	.	.	.	.	.
8E-X/	.	.	.	.	.	.	.	.	.	.	.
8GG/J)	.	.	.	.	.	.	.	.	.	.	.
!!LO:LB:g=original
=59	=59	=59	=59	=59	=59	=59	=59	=59	=59	=59	=59
*tremolo	*	*	*	*	*	*	*	*	*	*	*
!	!	!	!LO:TX:a:B:t=D. ALONZO.	!	!	!	!	!	!	!	!
8CL 8AAn 8FF#X/	8r	.	4.An\	Głos	.	1ryy	.	.	1ryy	.	.
8Dn/	16ddn\LL	.	.	.	.	.	.	.	.	.	.
.	16dd\JJ	.	.	.	.	.	.	.	.	.	.
8C 8AA 8FF#/	8ff#X\L	.	.	.	.	.	.	.	.	.	.
8DnX/J	8dd\J	.	8A\	su-	.	.	.	.	.	.	.
8CL 8AA 8FF#/	4dddn\	.	8A\	-mie-	.	.	.	.	.	.	.
8D/	.	.	8Dn\	-nia	.	.	.	.	.	.	.
8C 8AA 8FF#/	4r	.	8D\	czyż	.	.	.	.	.	.	.
8D/J	.	.	8D\	nie	.	.	.	.	.	.	.
=60	=60	=60	=60	=60	=60	=60	=60	=60	=60	=60	=60
8BB-L 8GG/	8r	.	2B-\	wzbra-	.	1ryy	.	.	1ryy	.	.
8Dn/	16gg\LL	.	.	.	.	.	.	.	.	.	.
.	16gg\JJ	.	.	.	.	.	.	.	.	.	.
8BB- 8GG/	8bb-\L	.	.	.	.	.	.	.	.	.	.
8DnX/J	8ddn\J	.	.	.	.	.	.	.	.	.	.
8BB-L 8GG/	4dddn\	.	4G\	-nia	.	.	.	.	.	.	.
8D/	.	.	.	.	.	.	.	.	.	.	.
8BB- 8GG/	4r	.	8G\	Na	.	.	.	.	.	.	.
8D/J	.	.	8G\	nie-	.	.	.	.	.	.	.
=61	=61	=61	=61	=61	=61	=61	=61	=61	=61	=61	=61
8CL 8AAn 8FF#X/	8r	.	4An\	-win-	.	1ryy	.	.	1ryy	.	.
8Dn/	16ddn\LL	.	.	.	.	.	.	.	.	.	.
.	16dd\JJ	.	.	.	.	.	.	.	.	.	.
8C 8AA 8FF#/	8ff#X\L	.	4Dn\	-nych	.	.	.	.	.	.	.
8DnX/J	8ddnX\J	.	.	.	.	.	.	.	.	.	.
8CL 8AA 8FF#/	4dddn\	.	4D\	speł-	.	.	.	.	.	.	.
8D/	.	.	.	.	.	.	.	.	.	.	.
8C 8AA 8FF#/	4r	.	4D\	-niać	.	.	.	.	.	.	.
8D/J	.	.	.	.	.	.	.	.	.	.	.
=62	=62	=62	=62	=62	=62	=62	=62	=62	=62	=62	=62
8BB-L 8GG/	8r	.	4B-\	mor-	.	1ryy	.	.	1ryy	.	.
8Dn/	16gg\LL	.	.	.	.	.	.	.	.	.	.
.	16gg\JJ	.	.	.	.	.	.	.	.	.	.
8BB- 8GG/	8bb-\L	.	8G\	-dy	.	.	.	.	.	.	.
8DnX/J	8ddn\J	.	8r	.	.	.	.	.	.	.	.
8BB-L 8GG/	4dddn\	.	4.B-\	Hej	.	.	.	.	.	.	.
8D/	.	.	.	.	.	.	.	.	.	.	.
8BB- 8GG/	4r	.	.	.	.	.	.	.	.	.	.
8D/J	.	.	8B-\	Pe-	.	.	.	.	.	.	.
!!LO:LB:g=original
=63	=63	=63	=63	=63	=63	=63	=63	=63	=63	=63	=63
8DnL 8BBn 8GG#X/	8r	.	4Bn\	-re-	.	1ryy	.	.	1ryy	.	.
8En/	16een\LL	.	.	.	.	.	.	.	.	.	.
.	16ee\JJ	.	.	.	.	.	.	.	.	.	.
8D 8BB 8GG#/	8gg#X\L	.	8En\	-zie	.	.	.	.	.	.	.
8EnX/J	8ee\J	.	8r	.	.	.	.	.	.	.	.
8DL 8BB 8GG#/	4eeen\	.	4.E\	bez	.	.	.	.	.	.	.
8E/	.	.	.	.	.	.	.	.	.	.	.
8D 8BB 8GG#/	4r	.	.	.	.	.	.	.	.	.	.
8E/J	.	.	8E\	wa-	.	.	.	.	.	.	.
=64	=64	=64	=64	=64	=64	=64	=64	=64	=64	=64	=64
8CL 8AAn/	8r	.	4c\	-cha-	.	1ryy	.	.	1ryy	.	.
8En/	16aan\LL	.	.	.	.	.	.	.	.	.	.
.	16aa\JJ	.	.	.	.	.	.	.	.	.	.
8C 8AA/	8ccc\L	.	4An\	-nia	.	.	.	.	.	.	.
8EnX/J	8aa\J	.	.	.	.	.	.	.	.	.	.
8CL 8AA/	4eeen\	.	4.A\	od	.	.	.	.	.	.	.
8E/	.	.	.	.	.	.	.	.	.	.	.
8C 8AA/	4r	.	.	.	.	.	.	.	.	.	.
8E/J	.	.	8A\	zbó-	.	.	.	.	.	.	.
=65	=65	=65	=65	=65	=65	=65	=65	=65	=65	=65	=65
8DnL 8BBn 8GG#X/	8r	.	4Bn\	-je-	.	1ryy	.	.	1ryy	.	.
8En/	16een\LL	.	.	.	.	.	.	.	.	.	.
.	16ee\JJ	.	.	.	.	.	.	.	.	.	.
8D 8BB 8GG#/	8gg#X\L	.	4En\	-chcéj	.	.	.	.	.	.	.
8EnX/J	8ee\J	.	.	.	.	.	.	.	.	.	.
8DL 8BB 8GG#/	4eeen\	.	4E\	od-	.	.	.	.	.	.	.
8E/	.	.	.	.	.	.	.	.	.	.	.
8D 8BB 8GG#/	4r	.	4E\	-stąp	.	.	.	.	.	.	.
8E/J	.	.	.	.	.	.	.	.	.	.	.
=66	=66	=66	=66	=66	=66	=66	=66	=66	=66	=66	=66
8CL 8AAn/	8r	.	4c\	hor-	.	1ryy	.	.	1ryy	.	.
8En/	16aan\LL	.	.	.	.	.	.	.	.	.	.
.	16aa\JJ	.	.	.	.	.	.	.	.	.	.
8C 8AA/	8ccc\L	.	8An\	-dy	.	.	.	.	.	.	.
8EnX/J	8een\J	.	8r	.	.	.	.	.	.	.	.
8CL 8AA/	4eeen\	.	4.c\	u-	.	.	.	.	.	.	.
8E/	.	.	.	.	.	.	.	.	.	.	.
8C 8AA/	4r	.	.	.	.	.	.	.	.	.	.
8E/J	.	.	8c\	-czyń	.	.	.	.	.	.	.
*Xtremolo	*	*	*	*	*	*	*	*	*	*	*
!!LO:LB:g=original
=67	=67	=67	=67	=67	=67	=67	=67	=67	=67	=67	=67
8GG/	8r	.	4c\	z zbrod-	.	1ryy	.	.	1ryy	.	.
8r	8en 8c 8B-X</	.	.	.	.	.	.	.	.	.	.
8C/	8r	.	4c\	-nią	.	.	.	.	.	.	.
8r	8e 8c 8B-</	.	.	.	.	.	.	.	.	.	.
8G\	8r	.	(8Bn\L	roz-	.	.	.	.	.	.	.
8r	8e 8c 8B-</	.	8c\J)	.	.	.	.	.	.	.	.
8C/	8r	.	(8d-\L	-brat	.	.	.	.	.	.	.
8r	8e 8c 8B-</	.	8c\J)	.	.	.	.	.	.	.	.
=68	=68	=68	=68	=68	=68	=68	=68	=68	=68	=68	=68
8FF/	8r	.	4B-X\	wie-	.	1ryy	.	.	1ryy	.	.
8r	8f 8c 8An</	.	.	.	.	.	.	.	.	.	.
8C/	8r	.	4An\	-czny	.	.	.	.	.	.	.
8r	8f 8c 8A</	.	.	.	.	.	.	.	.	.	.
8F\	8r	.	4A\	żal	.	.	.	.	.	.	.
8r	8f 8c 8A</	.	.	.	.	.	.	.	.	.	.
8FF/	8r	.	4A\	za	.	.	.	.	.	.	.
8r	8f 8c 8A</	.	.	.	.	.	.	.	.	.	.
=69	=69	=69	=69	=69	=69	=69	=69	=69	=69	=69	=69
8EEn/	8r	.	4G\	wi-	.	1ryy	.	.	1ryy	.	.
8r	8g 8c 8B-</	.	.	.	.	.	.	.	.	.	.
8C/	8r	.	4F#X\	-ny	.	.	.	.	.	.	.
8r	8g 8c 8B-</	.	.	.	.	.	.	.	.	.	.
8G\	8r	.	4G\	roz-	.	.	.	.	.	.	.
8r	8g 8c 8B-</	.	.	.	.	.	.	.	.	.	.
8EE/	8r	.	4G#X\	-budź	.	.	.	.	.	.	.
8r	8g 8c 8B-</	.	.	.	.	.	.	.	.	.	.
=70	=70	=70	=70	=70	=70	=70	=70	=70	=70	=70	=70
8FF/	8r	.	4An\	w ło-	.	1ryy	.	.	1ryy	.	.
8r	8f 8c 8An</	.	.	.	.	.	.	.	.	.	.
8C/	8r	.	8F\	-nie	.	.	.	.	.	.	.
8r	8f 8c 8A</	.	8r	.	.	.	.	.	.	.	.
8F\	8r	.	4A\	I	.	.	.	.	.	.	.
8r	8f 8c 8A</	.	.	.	.	.	.	.	.	.	.
8FF/	8r	.	4A\	téj	.	.	.	.	.	.	.
8r	8f 8c 8A</	.	.	.	.	.	.	.	.	.	.
!!LO:PB:g=original
=71	=71	=71	=71	=71	=71	=71	=71	=71	=71	=71	=71
8EEn/	8r	.	4An\	rę-	.	1ryy	.	.	1ryy	.	.
8r	8g 8c#X 8An/	.	.	.	.	.	.	.	.	.	.
8AAn/	8r	.	4A\	-ki	.	.	.	.	.	.	.
8r	8g 8c# 8A/	.	.	.	.	.	.	.	.	.	.
8En\	8r	.	(8G#X\L	twéj	.	.	.	.	.	.	.
8r	8g 8c# 8A/	.	8A\J)	.	.	.	.	.	.	.	.
8AA/	8r	.	(8B-\L	wa-	.	.	.	.	.	.	.
8r	8g 8c# 8A/	.	8A\J)	.	.	.	.	.	.	.	.
=72	=72	=72	=72	=72	=72	=72	=72	=72	=72	=72	=72
8Dn\	8r	.	4Gn\	-le-	.	1ryy	.	.	1ryy	.	.
8r	8f 8dn 8An/	.	.	.	.	.	.	.	.	.	.
8D\	8r	.	4F\	-cznéj	.	.	.	.	.	.	.
8r	8f 8d 8A/	.	.	.	.	.	.	.	.	.	.
8BB-/	8r	.	4En\	u-	.	.	.	.	.	.	.
8r	8f 8d 8A/	.	.	.	.	.	.	.	.	.	.
8BB-/	8r	.	4Dn\	-żyj	.	.	.	.	.	.	.
8r	8f 8d 8A/	.	.	.	.	.	.	.	.	.	.
=73	=73	=73	=73	=73	=73	=73	=73	=73	=73	=73	=73
8C/	8r	.	4C/	w Bo-	.	1ryy	.	.	1ryy	.	.
8r	8f 8c 8An/	.	.	.	.	.	.	.	.	.	.
8C/	8r	.	8BBn/L	-skich	.	.	.	.	.	.	.
8r	8f 8c 8A/	.	8C/J	.	.	.	.	.	.	.	.
8C/	8r	.	4G\	praw	.	.	.	.	.	.	.
8r	8en 8c 8B-</	.	.	.	.	.	.	.	.	.	.
8C/	8r	.	4G#X\	o-	.	.	.	.	.	.	.
8r	8e 8c 8B-</	.	.	.	.	.	.	.	.	.	.
=74	=74	=74	=74	=74	=74	=74	=74	=74	=74	=74	=74
8FF/	8r	.	4An\	-bro-	.	1ryy	.	.	1ryy	.	.
8r	8f 8c 8An</	.	.	.	.	.	.	.	.	.	.
8AAn/	8r	.	8F\	-nie	.	.	.	.	.	.	.
8r	8f 8c 8A</	.	8r	.	.	.	.	.	.	.	.
8C/	8r	.	4A\	I	.	.	.	.	.	.	.
8r	8f 8c 8A</	.	.	.	.	.	.	.	.	.	.
8F\	8r	.	4A\	téj	.	.	.	.	.	.	.
8r	8f 8c 8A</	.	.	.	.	.	.	.	.	.	.
!!LO:LB:g=original
=75	=75	=75	=75	=75	=75	=75	=75	=75	=75	=75	=75
8EEn/	8r	.	4An\	rę-	.	1ryy	.	.	1ryy	.	.
8r	8g 8c#X 8An/	.	.	.	.	.	.	.	.	.	.
8AAn/	8r	.	4A\	-ki	.	.	.	.	.	.	.
8r	8g 8c# 8A/	.	.	.	.	.	.	.	.	.	.
8En\	8r	.	(8G#X\L	u-	.	.	.	.	.	.	.
8r	8g 8c# 8A/	.	8A\J)	.	.	.	.	.	.	.	.
8AA/	8r	.	(8B-\L	-żyj	.	.	.	.	.	.	.
8r	8g 8c# 8A/	.	8A\J)	.	.	.	.	.	.	.	.
=76	=76	=76	=76	=76	=76	=76	=76	=76	=76	=76	=76
8Dn\	8r	.	4G\	w Bo-	.	1ryy	.	.	1ryy	.	.
8r	8f 8dn 8An/	.	.	.	.	.	.	.	.	.	.
8D\	8r	.	4F\	-skich	.	.	.	.	.	.	.
8r	8f 8d 8A/	.	.	.	.	.	.	.	.	.	.
8BBn/	8r	.	4En\	praw	.	.	.	.	.	.	.
8r	8f 8d 8G#X</	.	.	.	.	.	.	.	.	.	.
8BB/	8r	.	4Dn\	o-	.	.	.	.	.	.	.
8r	8f 8d 8G#</	.	.	.	.	.	.	.	.	.	.
=77	=77	=77	=77	=77	=77	=77	=77	=77	=77	=77	=77
8C/	8r	.	(4C/	-bro-	.	1ryy	.	.	1ryy	.	.
8r	8f 8c 8An</	.	.	.	.	.	.	.	.	.	.
8C/	8r	.	8BBn/L	.	.	.	.	.	.	.	.
8r	8f 8c 8A</	.	8C/J	.	.	.	.	.	.	.	.
8C/	8r	.	4.An\	.	.	.	.	.	.	.	.
8r	8en 8c 8B-</	.	.	.	.	.	.	.	.	.	.
8C/	8r	.	.	.	.	.	.	.	.	.	.
8r	8e 8c 8B-</	.	8G\)	.	.	.	.	.	.	.	.
=78	=78	=78	=78	=78	=78	=78	=78	=78	=78	=78	=78
!	!LO:TX:b:B:t=Un poco più modto	!	!LO:TX:a:B:t=Un poco più modto	!	!	!	!	!	!	!	!
4F 4FF/	4r	.	4F\	-nie	.	1ryy	.	.	1ryy	.	.
4rAA	4f 4c 4An</	.	4r	.	.	.	.	.	.	.	.
4F 4FF/	4r	.	4F\	Mo-	.	.	.	.	.	.	.
4rAA	4f 4c 4A</	.	8.F\	-żesz	.	.	.	.	.	.	.
.	.	.	16G\	za-	.	.	.	.	.	.	.
!!LO:LB:g=original
=79	=79	=79	=79	=79	=79	=79	=79	=79	=79	=79	=79
4AAn 4AAAn/	4r	.	4An\	-wie-	.	1ryy	.	.	1ryy	.	.
4rAA	4g 4c#X 4An</	.	4A\	-rzyć	.	.	.	.	.	.	.
4Dn 4DDn/	4r	.	8Dn\	mo-	.	.	.	.	.	.	.
.	.	.	8D\	-ich	.	.	.	.	.	.	.
4rAA	4f 4dn 4A</	.	8D\	słów	.	.	.	.	.	.	.
.	.	.	8En\	po-	.	.	.	.	.	.	.
=80	=80	=80	=80	=80	=80	=80	=80	=80	=80	=80	=80
4FF 4FFF/	4r	.	2F\	-wa-	.	1ryy	.	.	1ryy	.	.
4rAA	4e-X 4An< 4F</	.	.	.	.	.	.	.	.	.	.
4BB- 4BBB-/	4r	.	8BB-/	-dze	.	.	.	.	.	.	.
.	.	.	8Dn\	wiesz	.	.	.	.	.	.	.
4rAA	4dn 4B-< 4F</	.	8D\	że	.	.	.	.	.	.	.
.	.	.	8D\	mo-	.	.	.	.	.	.	.
=81	=81	=81	=81	=81	=81	=81	=81	=81	=81	=81	=81
4C 4CC/	4r	.	4C/	-nar-	.	1ryy	.	.	1ryy	.	.
4rAA	4c 4An< 4F</	.	8C/	-szą	.	.	.	.	.	.	.
.	.	.	8C/	pia-	.	.	.	.	.	.	.
4C 4CC/	4r	.	4C/	-stu-	.	.	.	.	.	.	.
4rAA	4en 4c 4B-</	.	8Dn\	-ję	.	.	.	.	.	.	.
.	.	.	8En\	tu	.	.	.	.	.	.	.
!!LO:LB:g=original
=82	=82	=82	=82	=82	=82	=82	=82	=82	=82	=82	=82
4FF/	8r	.	4G\	wła-	.	1ryy	.	.	1ryy	.	.
.	16ff'\LL	.	.	.	.	.	.	.	.	.	.
.	16ff'\JJ	.	.	.	.	.	.	.	.	.	.
4f 4c 4An\	8aan'\L	.	8F\	-dzę	.	.	.	.	.	.	.
.	8ff'\J	.	8r	.	.	.	.	.	.	.	.
4F: 4C: 4AAn: 4FF:/	8fff\L	.	4F\	Łask	.	.	.	.	.	.	.
.	16ff'\L	.	.	.	.	.	.	.	.	.	.
.	16ff'\JJ	.	.	.	.	.	.	.	.	.	.
4f: 4c: 4A: 4F:\	8aa'\L	.	8F\	nie	.	.	.	.	.	.	.
.	8ff'\J	.	8G\	po-	.	.	.	.	.	.	.
=83	=83	=83	=83	=83	=83	=83	=83	=83	=83	=83	=83
4AAn/	8een\L	.	4An\	-ską-	.	1ryy	.	.	1ryy	.	.
.	16aan\L	.	.	.	.	.	.	.	.	.	.
.	16aa\JJ	.	.	.	.	.	.	.	.	.	.
!LO:SIC:v:s=4en: 4An: 4G:\	!	!	!	!	!	!	!	!	!	!	!
4e-: 4An: 4G:\	8ccc#X\L	.	8A\	-pię	.	.	.	.	.	.	.
.	8aa\J	.	8A\	a	.	.	.	.	.	.	.
4Dn\	8dddn\L	.	4Dn\	win	.	.	.	.	.	.	.
.	16ddn\L	.	.	.	.	.	.	.	.	.	.
.	16dd\JJ	.	.	.	.	.	.	.	.	.	.
4dn: 4A: 4F: 4D:\	8ff\L	.	8D\	twych	.	.	.	.	.	.	.
.	8dd\J	.	8En\	prze-	.	.	.	.	.	.	.
=84	=84	=84	=84	=84	=84	=84	=84	=84	=84	=84	=84
4FF/	8cc\L	.	2F\	-po-	.	1ryy	.	.	1ryy	.	.
.	16ff'\L	.	.	.	.	.	.	.	.	.	.
.	16ff'\JJ	.	.	.	.	.	.	.	.	.	.
4c 4F 4E-X\	8aan'\L	.	.	.	.	.	.	.	.	.	.
.	8ff'\J	.	.	.	.	.	.	.	.	.	.
(<2BB-\	4bb-\	.	8BB-/	-mnę	.	.	.	.	.	.	.
.	.	.	8Dn\	i	.	.	.	.	.	.	.
!	!LO:S:s=1:note:problem:note-level slur	!	!	!	!	!	!	!	!	!	!
!	!LO:S:s=2:note:problem:note-level slur	!	!	!	!	!	!	!	!	!	!
.	(>4dn (>4B-< [>4F</	.	8D\	czyn	.	.	.	.	.	.	.
.	.	.	8D\	twój	.	.	.	.	.	.	.
=85	=85	=85	=85	=85	=85	=85	=85	=85	=85	=85	=85
!	!LO:S:s=1:note:problem:note-level slur	!	!	!	!	!	!	!	!	!	!
!	!LO:S:s=2:note:problem:note-level slur	!	!	!	!	!	!	!	!	!	!
4C\)	(>4c) 4An<) 4F</]	<	(4C/	w wie-	.	1ryy	.	.	1ryy	.	.
!	!LO:SIC:v:s=4en 4B-< 4G</	!	!	!	!	!	!	!	!	!	!
4C#X\	4e- 4B-< 4G</	.	4En\)	.	.	.	.	.	.	.	.
!LO:SIC:v:s=4Dn\	!	!	!	!	!	!	!	!	!	!	!
4D-\	4f 4A< 4F</	.	4F\	-ki	.	.	.	.	.	.	.
4Cn\	4g 4en 4c/)	[	4G\	prze-	.	.	.	.	.	.	.
!!LO:PB:g=original
=86	=86	=86	=86	=86	=86	=86	=86	=86	=86	=86	=86
!LO:S:s=1:note:problem:note-level slur	!	!	!	!	!	!	!	!	!	!	!
!LO:S:s=2:note:problem:note-level slur	!	!	!	!	!	!	!	!	!	!	!
!LO:S:s=3:note:problem:note-level slur	!	!	!	!	!	!	!	!	!	!	!
(>1A-X [>1F (<1Dn (<1BBn	8a-X 8f 8dn/	.	2A-X\	-ka-	.	1ryy	.	.	1ryy	.	.
!	!LO:TX:a:t=Clar	!	!	!	!	!	!	!	!	!	!
.	(8aa-X\L	f	.	.	.	.	.	.	.	.	.
.	8ff\	>	.	.	.	.	.	.	.	.	.
.	8ddn\J	.	.	.	.	.	.	.	.	.	.
!	!	!	!LO:TX:a:i:t=(ROZALIA wchodzi)	!	!	!	!	!	!	!	!
.	8bn/L	.	4BBn/	-żę	.	.	.	.	.	.	.
.	8a-/	.	.	.	.	.	.	.	.	.	.
.	8f/	.	4BB/	prze-	.	.	.	.	.	.	.
.	8dn/J)	]	.	.	.	.	.	.	.	.	.
=87	=87	=87	=87	=87	=87	=87	=87	=87	=87	=87	=87
!LO:S:s=1:note:problem:note-level slur	!	!	!	!	!	!	!	!	!	!	!
!LO:S:s=2:note:problem:note-level slur	!	!	!	!	!	!	!	!	!	!	!
!LO:S:s=3:note:problem:note-level slur	!LO:TX:t=P:problem:mixed beam	!	!	!	!	!	!	!	!	!	!
4An) 4F]) 4C\)	8c/L	.	2.C/	-ka-	.	1ryy	.	.	1ryy	.	.
!	!LO:TX:a:t=Flau	!LO:DY:b:rj	!	!	!	!	!	!	!	!	!
.	(8bbn\	p	.	.	.	.	.	.	.	.	.
4A 4F 4C\	8ccc\	.	.	.	.	.	.	.	.	.	.
.	8aan\J	.	.	.	.	.	.	.	.	.	.
4A 4F 4C\	8ff\L	.	.	.	.	.	.	.	.	.	.
.	8cc\	.	.	.	.	.	.	.	.	.	.
4A 4F 4C\	8an\	.	8BBn/	-żę	.	.	.	.	.	.	.
.	8f\J)	.	8C/	po-	.	.	.	.	.	.	.
=88	=88	=88	=88	=88	=88	=88	=88	=88	=88	=88	=88
!	!LO:TX:t=P:problem:mixed beam	!	!	!	!	!	!	!	!	!	!
4CC/	8c/L	.	2.Dn\	-to-	.	1ryy	.	.	1ryy	.	.
!	!LO:TX:a:t=Oboe	!	!	!	!	!	!	!	!	!	!
.	(8bb-\	>	.	.	.	.	.	.	.	.	.
4B- 4G 4En\	8gg\	.	.	.	.	.	.	.	.	.	.
.	8een\J	.	.	.	.	.	.	.	.	.	.
4B- 4G 4E\	8cc\L	.	.	.	.	.	.	.	.	.	.
.	8b-\	.	.	.	.	.	.	.	.	.	.
4CC/	8g\	.	4C/	.	.	.	.	.	.	.	.
.	8an\J)	]	.	.	.	.	.	.	.	.	.
=89	=89	=89	=89	=89	=89	=89	=89	=89	=89	=89	=89
4FF/	4f/	.	4F 4FF/	-mnie	.	1ryy	.	.	1ryy	.	.
!	!	!LO:DY:b:rj	!LO:TX:a:i:t=(do ROZALIJ)	!	!	!	!	!	!	!	!
8cL 8An 8F\	8ff\L	f	4r	.	.	.	.	.	.	.	.
8cJ 8A 8F\	8aan\J	.	.	.	.	.	.	.	.	.	.
4c 4A 4F\	4ccc\	.	4F\	W to-	.	.	.	.	.	.	.
4r	4r	.	8F\	-bie	.	.	.	.	.	.	.
.	.	.	8F\	więc	.	.	.	.	.	.	.
!!LO:LB:g=original
=90	=90	=90	=90	=90	=90	=90	=90	=90	=90	=90	=90
!	!	!	!LO:TX:a:B:t=D. ALONZO.	!	!	!	!	!	!LO:TX:a:B:t=ROZALIA .	!	!
4r	4r	.	4B-\	mo-	.	1ryy	.	.	1r	.	.
8cL 8An 8F\	8aan\L	.	8An\	-ja	.	.	.	.	.	.	.
8cJ 8A 8F\	8ccc\J	.	8A\	na-	.	.	.	.	.	.	.
4c 4A 4F\	4fff\	.	4A\	-dzie-	.	.	.	.	.	.	.
4r	4r	.	8G\	-ja	.	.	.	.	.	.	.
.	.	.	8A\	o-	.	.	.	.	.	.	.
=91	=91	=91	=91	=91	=91	=91	=91	=91	=91	=91	=91
!	!	!	!	!	!	!	!	!	!LO:TX:a:i:t=(do PEREZA)	!	!
.	.	.	4qqG/	-sta-	.	.	.	.	.	.	.
4r	4r	.	2F\	-tnia	.	1ryy	.	.	8.ddn\	Zkąd	.
.	.	.	.	.	.	.	.	.	16dn/	ten	.
8AnL 8F 8Dn\	8ffL 8f\	.	.	.	.	.	.	.	8.d/	o-	.
8AJ 8F 8D\	8aanJ 8an\	.	.	.	.	.	.	.	.	.	.
.	.	.	.	.	.	.	.	.	16en/	-pór	.
4A 4F 4D\	4dddn 4ddn\	.	2r	.	.	.	.	.	4f/	no-	.
4r	4r	.	.	.	.	.	.	.	8d/	-wy	.
.	.	.	.	.	.	.	.	.	16r	.	.
.	.	.	.	.	.	.	.	.	16d/	czyż	.
=92	=92	=92	=92	=92	=92	=92	=92	=92	=92	=92	=92
4r	4r	.	1r	.	.	1ryy	.	.	8f/	two-	.
.	.	.	.	.	.	.	.	.	8f/	-ja	.
8AnL 8F 8Dn\	8aanL 8an\	.	.	.	.	.	.	.	8f/	mi-	.
8AJ 8F 8D\	8dddnJ 8ddn\	.	.	.	.	.	.	.	8f/	-łość	.
4A 4F 4D\	4fff 4ff\	.	.	.	.	.	.	.	8f/	o-	.
.	.	.	.	.	.	.	.	.	8f/	-świad-	.
4r	4r	.	.	.	.	.	.	.	8.ddn\	-cza-	.
.	.	.	.	.	.	.	.	.	16cc\	-na	.
!!LO:LB:g=original
=93	=93	=93	=93	=93	=93	=93	=93	=93	=93	=93	=93
!	!	!	!	!	!	!LO:TX:a:B:t=PEREZ.	!	!	!LO:TX:a:B:t=ROZALIA .	!	!
4r	4r	.	1ryy	.	.	1r	.	.	4cc\	sło-	.
8GL 8Dn 8BBn 8GG/	8ggL 8g\	.	.	.	.	.	.	.	8bn\	-wy	.
8GJ 8D 8BB 8GG/	8bbnJ 8bn\	.	.	.	.	.	.	.	8r	.	.
4G 4D 4BB 4GG/	4dddn 4ddn\	.	.	.	.	.	.	.	8b\	nik-	.
.	.	.	.	.	.	.	.	.	8b\	-nie	.
4r	4r	.	.	.	.	.	.	.	8r	.	.
.	.	.	.	.	.	.	.	.	8cc\	gdy	.
=94	=94	=94	=94	=94	=94	=94	=94	=94	=94	=94	=94
4r	4r	.	1ryy	.	.	2r	.	.	4ddn\	czy-	.
8GL 8Dn 8BBn 8GG/	8bbnL 8bn\	.	.	.	.	.	.	.	4f/	-nem	.
8GJ 8D 8BB 8GG/	8dddnJ 8ddn\	.	.	.	.	.	.	.	.	.	.
4G 4D 4BB 4GG/	4ggg 4gg\	.	.	.	.	4r	.	.	8f/	do-	.
.	.	.	.	.	.	.	.	.	8f/	-wieść	.
4r	4r	.	.	.	.	8.r	.	.	8.f/	jéj	.
.	.	.	.	.	.	16G\	O	.	16g/	po-	.
=95	=95	=95	=95	=95	=95	=95	=95	=95	=95	=95	=95
.	.	.	.	.	.	.	.	.	4qqf/	-trze-	.
*	*^	*	*	*	*	*	*	*	*	*	*
(8CL 8CC/	2r	2rcyy	.	1ryy	.	.	4c\	nie!...	.	2en/	-ba	.
8C/J	.	.	.	.	.	.	.	.	.	.	.	.
8c\L	.	.	.	.	.	.	4r	.	.	.	.	.
8C\J	.	.	.	.	.	.	.	.	.	.	.	.
*tremolo	*	*	*	*	*	*	*	*	*	*	*	*
8B-X\L	2cc^/	2g 2en\	.	.	.	.	2B-X\	krew	.	2r	.	.
8C\	.	.	.	.	.	.	.	.	.	.	.	.
8B-\	.	.	.	.	.	.	.	.	.	.	.	.
8C\J)	.	.	.	.	.	.	.	.	.	.	.	.
=96	=96	=96	=96	=96	=96	=96	=96	=96	=96	=96	=96	=96
(8An\L	[1cc	2f\	.	1ryy	.	.	4An\	brat-	.	1r	.	.
8C\	.	.	.	.	.	.	.	.	.	.	.	.
8A\	.	.	.	.	.	.	8A\	-nią	.	.	.	.
8C\J	.	.	.	.	.	.	8A\	prze-	.	.	.	.
8A-X\L	.	2f#X 2d#X\	.	.	.	.	4A-X\	-bacz-	.	.	.	.
8C\	.	.	.	.	.	.	.	.	.	.	.	.
8A-\	.	.	.	.	.	.	8A-\	-cie	.	.	.	.
8C\J)	.	.	.	.	.	.	8A-\	mi	.	.	.	.
!!LO:LB:g=original
=97	=97	=97	=97	=97	=97	=97	=97	=97	=97	=97	=97	=97
.	.	.	.	.	.	.	4qqA-X/	.	.	.	.	.
*^	*	*	*	*	*	*	*	*	*	*	*	*
(8G/L	[1C	2cc/]	2g 2en\	.	1ryy	.	.	2G\	-ba	.	1ryy	.	.
8C/	.	.	.	.	.	.	.	.	.	.	.	.	.
8G/	.	.	.	.	.	.	.	.	.	.	.	.	.
8C/J	.	.	.	.	.	.	.	.	.	.	.	.	.
8B-X/L	.	[2cc^/	2g 2e\	.	.	.	.	4r	.	.	.	.	.
8C/	.	.	.	.	.	.	.	.	.	.	.	.	.
8B-/	.	.	.	.	.	.	.	8r	.	.	.	.	.
8C/J	.	.	.	.	.	.	.	8B-\	prze-	.	.	.	.
=98	=98	=98	=98	=98	=98	=98	=98	=98	=98	=98	=98	=98	=98
8An/L	1C_	1cc_	2f\	.	1ryy	.	.	4An\	-bacz-	.	1ryy	.	.
8C/	.	.	.	.	.	.	.	.	.	.	.	.	.
8A/	.	.	.	.	.	.	.	4A\	-cie	.	.	.	.
8C/J	.	.	.	.	.	.	.	.	.	.	.	.	.
8A-X^</L	.	.	2f#X 2d#X\	.	.	.	.	4r	.	.	.	.	.
8C/	.	.	.	.	.	.	.	.	.	.	.	.	.
8A-/	.	.	.	.	.	.	.	8r	.	.	.	.	.
8C/J)	.	.	.	.	.	.	.	8A-X\	prze-	.	.	.	.
=99	=99	=99	=99	=99	=99	=99	=99	=99	=99	=99	=99	=99	=99
!	!	!LO:TX:b:i:t=poco ri-tar-dando e cres-:ext=cd:problem:text with extention lines	!	!	!	!	!	!	!	!	!	!	!
8G/L	1C_	2cc/]	2g 2en\	<	1ryy	.	.	4G\	-bacz-	.	1ryy	.	.
8C/	.	.	.	.	.	.	.	.	.	.	.	.	.
8G/	.	.	.	.	.	.	.	8G\	-cie	.	.	.	.
8C/J	.	.	.	.	.	.	.	8r	.	.	.	.	.
8A-X^</L	.	[2cc/	2f#X 2d#X\	.	.	.	.	2c\	krew	.	.	.	.
8C/	.	.	.	.	.	.	.	.	.	.	.	.	.
8A-/	.	.	.	.	.	.	.	.	.	.	.	.	.
8C/J	.	.	.	.	.	.	.	.	.	.	.	.	.
=100	=100	=100	=100	=100	=100	=100	=100	=100	=100	=100	=100	=100	=100
8G/L	1C_	2cc/]	2g 2e-\	.	1ryy	.	.	2c\	bra-	.	1ryy	.	.
8C/	.	.	.	.	.	.	.	.	.	.	.	.	.
8G/	.	.	.	.	.	.	.	.	.	.	.	.	.
8C/J	.	.	.	.	.	.	.	.	.	.	.	.	.
8An^</L	.	[2cc/	2f#X 2d#X\	.	.	.	.	4c\	-tnią	.	.	.	.
8C/	.	.	.	.	.	.	.	.	.	.	.	.	.
8A/	.	.	.	.	.	.	.	4c\	prze-	.	.	.	.
8C/J	.	.	.	.	.	.	.	.	.	.	.	.	.
=101	=101	=101	=101	=101	=101	=101	=101	=101	=101	=101	=101	=101	=101
8G/L	1C_	2cc/]	2g 2en\	.	1ryy	.	.	1c	-bacz-	.	1ryy	.	.
8C/	.	.	.	.	.	.	.	.	.	.	.	.	.
8G/	.	.	.	.	.	.	.	.	.	.	.	.	.
8C/J	.	.	.	.	.	.	.	.	.	.	.	.	.
8A-X/L	.	2cc^/	2f#X 2d#X\	.	.	.	.	.	.	.	.	.	.
8C/	.	.	.	.	.	.	.	.	.	.	.	.	.
8A-/	.	.	.	.	.	.	.	.	.	.	.	.	.
8C/J	.	.	.	.	.	.	.	.	.	.	.	.	.
=102	=102	=102	=102	=102	=102	=102	=102	=102	=102	=102	=102	=102	=102
8G/L	1C]	2cc/	2g 2en\	.	1ryy	.	.	2c\	-cie	.	1ryy	.	.
8C/	.	.	.	.	.	.	.	.	.	.	.	.	.
8G/	.	.	.	.	.	.	.	.	.	.	.	.	.
8C/J	.	.	.	.	.	.	.	.	.	.	.	.	.
8An/L	.	2cc^/	2f#X 2d#X\	[	.	.	.	2c\	mi	.	.	.	.
8C/	.	.	.	.	.	.	.	.	.	.	.	.	.
8A/	.	.	.	.	.	.	.	.	.	.	.	.	.
8C/J	.	.	.	.	.	.	.	.	.	.	.	.	.
*Xtremolo	*	*	*	*	*	*	*	*	*	*	*	*	*
*v	*v	*	*	*	*	*	*	*	*	*	*	*	*
=103	=103	=103	=103	=103	=103	=103	=103	=103	=103	=103	=103	=103
2B-X 2C;\	2cc;/	2g 2en\	f>	1ryy	.	.	4c;\	Nie-	.	1ryy	.	.
*	*	*	*	*	*	*	*Xtuplet	*	*	*	*	*
*	*	*	*	*	*	*	*cue	*	*	*	*	*
*	*	*	*	*	*	*	*rscale:2	*	*	*	*	*
.	.	.	.	.	.	.	(24c#X\L	.	.	.	.	.
!	!	!	!	!	!	!	!LO:SIC:v:s=24dn\	!	!	!	!	!
.	.	.	]	.	.	.	24d-\	.	.	.	.	.
.	.	.	.	.	.	.	24An\	.	.	.	.	.
.	.	.	.	.	.	.	24cn\	.	.	.	.	.
.	.	.	.	.	.	.	24B-\	.	.	.	.	.
.	.	.	.	.	.	.	24G\J)	.	.	.	.	.
*	*	*	*	*	*	*	*rscale:1	*	*	*	*	*
*	*	*	*	*	*	*	*Xcue	*	*	*	*	*
2r;	2r;	2rcyy	.	.	.	.	2E-;\	-ba.	.	.	.	.
*	*v	*v	*	*	*	*	*	*	*	*	*	*
!!LO:PB:g=original
==104	==104	==104	==104	==104	==104	==104	==104	==104	==104	==104	==104
*k[b-]	*k[b-]	*	*k[b-]	*	*	*k[b-]	*	*	*k[b-]	*	*
*F:	*F:	*	*F:	*	*	*F:	*	*	*F:	*	*
!!LO:TX:a:B:t=TERZETTINO.
!	!	!	!LO:TX:a:B:t=Allegro.	!	!	!	!	!	!	!	!
8r	8r	.	8C/	Po-	.	4.ryy	.	.	4.ryy	.	.
4r	4r	.	8BBn/	-myśl-	.	.	.	.	.	.	.
.	.	.	8C/	-na	.	.	.	.	.	.	.
=105	=105	=105	=105	=105	=105	=105	=105	=105	=105	=105	=105
8r	8r	.	4A\	gwia-	.	1ryy	.	.	1ryy	.	.
!	!	!LO:DY:b:rj	!	!	!	!	!	!	!	!	!
8FF/L	8fL 8c 8A/	p	.	.	.	.	.	.	.	.	.
8AA/	8f 8c 8A/	.	4F\	-zda	.	.	.	.	.	.	.
8C/J	8fJ 8c 8A/	.	.	.	.	.	.	.	.	.	.
4FF/	4f 4c 4A/	.	8r	.	.	.	.	.	.	.	.
.	.	.	8F\	już	.	.	.	.	.	.	.
4r	4r	.	8E\	nam	.	.	.	.	.	.	.
.	.	.	8F\	po-	.	.	.	.	.	.	.
=106	=106	=106	=106	=106	=106	=106	=106	=106	=106	=106	=106
8r	8r	.	4d\	-ły-	.	1ryy	.	.	1ryy	.	.
8BB-\L	8fL 8d 8B-/	.	.	.	.	.	.	.	.	.	.
8D\	8f 8d 8B-/	.	4B-\	-ska	.	.	.	.	.	.	.
8F\J	8fJ 8d 8B-/	.	.	.	.	.	.	.	.	.	.
4BB-/	4f 4d 4B-/	.	8r	.	.	.	.	.	.	.	.
.	.	.	8B-\	wnet	.	.	.	.	.	.	.
4r	4r	.	8c\	z te-	.	.	.	.	.	.	.
.	.	.	8d-X\	-go	.	.	.	.	.	.	.
!!LO:LB:g=original
=107	=107	=107	=107	=107	=107	=107	=107	=107	=107	=107	=107
8r	8r	.	4d-X\	gnia-	.	1ryy	.	.	1ryy	.	.
8C\L	8gL 8e 8B-/	.	.	.	.	.	.	.	.	.	.
8E\	8g 8e 8B-/	.	8c\	-zda	.	.	.	.	.	.	.
8G\J	8gJ 8e 8B-/	.	8r	.	.	.	.	.	.	.	.
4C/	4g 4e 4B-/	.	4G\	proch	.	.	.	.	.	.	.
4r	4r	.	8c\	i	.	.	.	.	.	.	.
.	.	.	8B-\	zwa-	.	.	.	.	.	.	.
=108	=108	=108	=108	=108	=108	=108	=108	=108	=108	=108	=108
8r	8r	.	4G#X\	-li-	.	1ryy	.	.	1ryy	.	.
!	!	!LO:DY:b:rj	!	!	!	!	!	!	!	!	!
8FF/L	8fL 8c 8A/	f	.	.	.	.	.	.	.	.	.
8AA/	8f 8c 8A/	.	4A\	-ska	.	.	.	.	.	.	.
8C/J	8fJ 8c 8A/	.	.	.	.	.	.	.	.	.	.
4F\	4f 4c 4A/	.	8r	.	.	.	.	.	.	.	.
.	.	.	8C/	A	.	.	.	.	.	.	.
4r	4r	.	8BBn/	więc	.	.	.	.	.	.	.
.	.	.	8C/	przy-	.	.	.	.	.	.	.
=109	=109	=109	=109	=109	=109	=109	=109	=109	=109	=109	=109
8r	8r	.	4A\	-mie-	.	1ryy	.	.	1ryy	.	.
!	!	!LO:DY:b:rj	!	!	!	!	!	!	!	!	!
8FF/L	8fL 8c 8A/	p	.	.	.	.	.	.	.	.	.
8AA/	8f 8c 8A/	.	4F\	-rze	.	.	.	.	.	.	.
8C/J	8fJ 8c 8A/	.	.	.	.	.	.	.	.	.	.
4FF/	4f 4c 4A/	.	8r	.	.	.	.	.	.	.	.
.	.	.	8F\	za-	.	.	.	.	.	.	.
4r	4r	.	8E\	-wrzyj-	.	.	.	.	.	.	.
.	.	.	8F\	-my	.	.	.	.	.	.	.
=110	=110	=110	=110	=110	=110	=110	=110	=110	=110	=110	=110
8r	8r	.	4d\	szcze-	.	1ryy	.	.	1ryy	.	.
8BB-/L	8fL 8d 8B-/	.	.	.	.	.	.	.	.	.	.
!	!	!LO:HP:a	!	!	!	!	!	!	!	!	!
8BB-/	8f 8d 8B-/	<	4B-\	-rze	.	.	.	.	.	.	.
8BB-/J	8fJ 8d 8B-/	.	.	.	.	.	.	.	.	.	.
4BBn\	4f 4d 4G#X</	.	8r	.	.	.	.	.	.	.	.
!	!LO:TX:b:i:t=ritenu-to:dur=6q:ext=cd:problem:text with extention lines	!	!	!	!	!	!	!	!	!	!
.	.	[[	8d\	A	.	.	.	.	.	.	.
4r	4r	.	8e\	w I-	.	.	.	.	.	.	.
.	.	.	8f\	-mie	.	.	.	.	.	.	.
!!LO:LB:g=original
=111	=111	=111	=111	=111	=111	=111	=111	=111	=111	=111	=111
!	!	!	!LO:TX:a:B:t=D. ALONZO.	!	!	!	!	!	!LO:TX:a:B:t=ROZALIA .	!	!
8r	8r	.	4f\	Bo-	.	1ryy	.	.	1r	.	.
8C\L	8fL 8c 8A</	.	.	.	.	.	.	.	.	.	.
8C\	8f 8c 8A</	.	8.c\	-ga	.	.	.	.	.	.	.
8C\J	8fJ 8c 8A</	.	.	.	.	.	.	.	.	.	.
.	.	.	16c\	zwy-	.	.	.	.	.	.	.
!	!	!	!	!	!LO:DY:a:rj	!	!	!	!	!	!
4C\	4e 4c 4B-</	.	(4c^\	-cię-	f	.	.	.	.	.	.
4r	4r	.	8.B-\)	.	.	.	.	.	.	.	.
.	.	.	16G\	-żym	.	.	.	.	.	.	.
=112	=112	=112	=112	=112	=112	=112	=112	=112	=112	=112	=112
!	!LO:TX:a:B:t=a tempo	!	!	!	!	!	!	!	!	!	!
8r	8r	.	4G\	wro-	.	1ryy	.	.	2r	.	.
8FF\L	8fL 8c 8A</	.	.	.	.	.	.	.	.	.	.
8AA\	8f 8c 8A</	.	4F\	-ga	.	.	.	.	.	.	.
8C\J	8fJ 8c 8A</	.	.	.	.	.	.	.	.	.	.
4F\	4f 4c 4A</	.	2r	.	.	.	.	.	8r	.	.
.	.	.	.	.	.	.	.	.	8c/	Po-	.
4r	4r	.	.	.	.	.	.	.	8Bn/	-myśl-	.
.	.	.	.	.	.	.	.	.	8c/	-na	.
=113	=113	=113	=113	=113	=113	=113	=113	=113	=113	=113	=113
!	!	!	!	!	!	!LO:TX:t=P:problem:t. 113-114 – partia Pereza wpisana do partii D. Alonzo.	!	!	!	!	!
!	!	!	!	!	!	!LO:TX:a:B:t=PEREZ.	!	!	!	!	!
8r	(4aa^\	p	1ryy	.	.	8r	.	.	4a/	gwia-	.
8cL 8A 8F\	.	.	.	.	.	8C/	Ah!	.	.	.	.
8c 8A 8F\	4ff\)	.	.	.	.	8BBn/	mo-	.	4f/	-zda	.
8cJ 8A 8F\	.	.	.	.	.	8C/	-ja	.	.	.	.
4c 4A 4F\	8r	.	.	.	.	4A\	gwia-	.	8r	.	.
.	(16qqff/LL	.	.	.	.	.	.	.	.	.	.
.	16qqgg/JJ	.	.	.	.	.	.	.	.	.	.
.	8ff'\L)	.	.	.	.	.	.	.	8f/	już	.
4r	8ee'\	.	.	.	.	4F\	-zda	.	8e/	nam	.
.	8ff'\J	.	.	.	.	.	.	.	8f/	po-	.
=114	=114	=114	=114	=114	=114	=114	=114	=114	=114	=114	=114
8r	(4ddd\	.	1ryy	.	.	8r	.	.	4dd\	-ły-	.
8B-L 8F 8D 8BB-\	.	.	.	.	.	8F\	smut-	.	.	.	.
8B- 8F 8D 8BB-\	4bb-\)	.	.	.	.	8E\	-no	.	4b-\	-ska	.
8B-J 8F 8D 8BB-\	.	.	.	.	.	8F\	po-	.	.	.	.
4B- 4F 4D 4BB-\	8r	.	.	.	.	4d\	-ły-	.	8r	.	.
.	(8bb-\L	.	.	.	.	.	.	.	8b-\	wnet	.
4r	8ccc\	.	.	.	.	4B-\	-ska	.	8cc\	z te-	.
.	8ddd-X\J)	.	.	.	.	.	.	.	8dd-X\	-go	.
!!LO:LB:g=original
=115	=115	=115	=115	=115	=115	=115	=115	=115	=115	=115	=115
8r	(4ddd-X^<\	.	1ryy	.	.	8r	.	.	4dd-X\	gnia-	.
8B-L 8G 8E 8C\	.	.	.	.	.	8E\	z brat-	.	.	.	.
8B- 8G 8E 8C\	4ccc\)	.	.	.	.	8F\	-nie-	.	8cc\	-zda	.
8B-J 8G 8E 8C\	.	.	.	.	.	8G\	-go	.	8r	.	.
4B- 4G 4E 4C\	8r	.	.	.	.	4G\	gnia-	.	4g/	proch	.
.	(8gg\L	.	.	.	.	.	.	.	.	.	.
4r	8ccc^<\	.	.	.	.	4C/	-zda	.	8cc\	i	.
.	8bb-\J)	.	.	.	.	.	.	.	8b-\	zwa-	.
=116	=116	=116	=116	=116	=116	=116	=116	=116	=116	=116	=116
8r	(4gg#X^<\	.	1ryy	.	.	4C/	proch	.	4g#X/	-li-	.
8AL 8F\	.	.	.	.	.	.	.	.	.	.	.
8A 8F\	4aa\)	.	.	.	.	8F\	i	.	4a/	-ska	.
8AJ 8F\	.	.	.	.	.	8A\	zwa-	.	.	.	.
4A 4F\	8r	.	.	.	.	4A\	-li-	.	8r	.	.
.	(16qqcc/LL	.	.	.	.	.	.	.	(16qqc/LL	.	.
.	16qqdd/JJ	.	.	.	.	.	.	.	16qqd/JJ	.	.
.	(8cc\L)	.	.	.	.	.	.	.	8c/)	A	.
4r	8bn\	.	.	.	.	4F\	-ska	.	8Bn/	więc	.
.	8cc\J)	.	.	.	.	.	.	.	8c/	przy-	.
=117	=117	=117	=117	=117	=117	=117	=117	=117	=117	=117	=117
8r	(4aa^<\	.	1ryy	.	.	8r	.	.	4a/	-mie-	.
8FL 8C 8AA 8FF/	.	.	.	.	.	8C/	za	.	.	.	.
8F 8C 8AA 8FF/	4ff\)	.	.	.	.	8BBn/	nim	.	4a/	-rze	.
8FJ 8C 8AA 8FF/	.	.	.	.	.	8C/	przy-	.	.	.	.
4F 4C 4AA 4FF/	8r	.	.	.	.	4A\	-mie-	.	8r	.	.
.	(16qqff/LL	.	.	.	.	.	.	.	(16qqf/LL	.	.
.	16qqgg/JJ	.	.	.	.	.	.	.	16qqg/JJ	.	.
.	(8ff\L)	.	.	.	.	.	.	.	8f/)	zaw-	.
4r	8ee\	.	.	.	.	4F\	-rze	.	8e/	-rzyj-	.
.	8ff\J)	.	.	.	.	.	.	.	8f/	-my	.
!!LO:PB:g=original
=118	=118	=118	=118	=118	=118	=118	=118	=118	=118	=118	=118
!	!	!	!LO:TX:a:B:t=D. ALONZO.	!	!	!LO:TX:a:B:t=PEREZ.	!	!	!LO:TX:a:B:t=ROZALIA .	!	!
8r	(4ddd\	.	1r	.	.	8r	.	.	4dd\	szcze-	.
8B-L 8F 8D 8BB-\	.	.	.	.	.	8F\	za-	.	.	.	.
8B- 8F 8D 8BB-\	4bb-\)	.	.	.	.	8E\	-wrze-	.	4b-\	-rze	.
8B-J 8F 8D 8BB-\	.	.	.	.	.	8F\	-my	.	.	.	.
4A-X 4G 4D 4BBn\	8r	<	.	.	.	4A-X\	szcze-	<	8r	.	.
!	!LO:TX:b:i:t=ritenu-to:dur=11e:ext=cd:problem:text with extention lines	!	!	!	!	!	!	!	!LO:TX:a:i:t=ritenu-to:dur=11e:ext=cd:problem:text with extention lines	!	!
.	8dddL 8dd\	.	.	.	.	.	.	.	8dd\	a	.
4r	8eee 8ee\	.	.	.	.	4A-\	-rze	[[	8ee\	w I-	.
.	8fffJ 8ff\	[	.	.	.	.	.	.	8ff\	-mie	.
=119	=119	=119	=119	=119	=119	=119	=119	=119	=119	=119	=119
8r	(4fff 4ff\	f	1r	.	.	4An\	Niech	.	4ff\	Bo-	.
8AnXL 8F 8C\	.	.	.	.	.	.	.	.	.	.	.
8A 8F 8C\	8ccc 8cc\)	.	.	.	.	8F\	w I-	.	8.cc\	-ga	.
8AJ 8F 8C\	8r	.	.	.	.	8D\	-mie	.	.	.	.
.	.	.	.	.	.	.	.	.	16cc\	zwy-	.
4B- 4G 4E 4C\	(4ccc 4cc\	.	.	.	.	4C/	Bo-	.	4cc\	-cię-	.
4r	8.bb-L 8.b-^<\	.	.	.	.	4C/	-ga	.	8.b-^\	.	.
.	16ggJk 16g\)	.	.	.	.	.	.	.	16g/	-żym	.
=120	=120	=120	=120	=120	=120	=120	=120	=120	=120	=120	=120
!	!LO:TX:a:B:t=a tempo	!LO:DY:b:rj	!	!	!	!	!	!	!LO:TX:a:B:t=a tempo	!	!
8cL 8A 8F\	16ffLL 16f\	fp	2F\	Po-	.	4F\	Pierzch-	.	4g/	wro-	.
.	16f\	.	.	.	.	.	.	.	.	.	.
8c 8A 8F\	16g\	.	.	.	.	.	.	.	.	.	.
.	16a\JJ	.	.	.	.	.	.	.	.	.	.
8c 8A 8F\	16b-\LL	.	.	.	.	8A\	-nie	.	4f/	-ga	.
.	16cc\	.	.	.	.	.	.	.	.	.	.
8cJ 8A 8F\	16dd\	.	.	.	.	8c\	ma	.	.	.	.
.	16ee\JJ	.	.	.	.	.	.	.	.	.	.
8cL 8A 8F\	16ff\LL	.	4F\	-myśl-	.	4c\	trwo-	.	2r	.	.
.	16ff\	.	.	.	.	.	.	.	.	.	.
8c 8A 8F\	16gg\	.	.	.	.	.	.	.	.	.	.
.	16aa\JJ	.	.	.	.	.	.	.	.	.	.
8c 8A 8F\	16bb-\LL	.	4F\	-na	.	4F\	-ga	.	.	.	.
.	16ccc\	.	.	.	.	.	.	.	.	.	.
8cJ 8A 8F\	16ddd\	.	.	.	.	.	.	.	.	.	.
.	16eee\JJ	.	.	.	.	.	.	.	.	.	.
!!LO:LB:g=original
=121	=121	=121	=121	=121	=121	=121	=121	=121	=121	=121	=121
8cL 8A 8F\	8fff\L	.	1F	gwia-	.	4r	.	.	4r	.	.
8c 8A 8F\	(16eee-X\L	.	.	.	.	.	.	.	.	.	.
.	16ddd\JJ)	.	.	.	.	.	.	.	.	.	.
8c 8A 8F\	(16ddd\LL	.	.	.	.	4c\	Ah!	.	4ee-X\	Po-	.
.	16ccc\)	.	.	.	.	.	.	.	.	.	.
8cJ 8A 8F\	(16ccc\	.	.	.	.	.	.	.	.	.	.
.	16bb-\JJ)	.	.	.	.	.	.	.	.	.	.
8cL 8A 8F\	(16bb-\LL	.	.	.	.	4c\	mo-	.	4ee-\	-myśl-	.
.	16aa\)	.	.	.	.	.	.	.	.	.	.
8c 8A 8F\	(16aa\	.	.	.	.	.	.	.	.	.	.
.	16gg\JJ)	.	.	.	.	.	.	.	.	.	.
8c 8A 8F\	(16gg\LL	.	.	.	.	4c\	-ja	.	4ee-\	-na	.
.	16ff\)	.	.	.	.	.	.	.	.	.	.
8cJ 8A 8F\	(16ff\	.	.	.	.	.	.	.	.	.	.
.	16ee-X\JJ)	.	.	.	.	.	.	.	.	.	.
=122	=122	=122	=122	=122	=122	=122	=122	=122	=122	=122	=122
8dL 8B- 8F\	8dd'\L	.	4F\	-zda	.	2c\	gwia-	.	2ee-X\	gwia-	.
8d 8B- 8F\	(16ddd\L	<	.	.	.	.	.	.	.	.	.
.	16bb-\JJ)	.	.	.	.	.	.	.	.	.	.
8d 8B- 8F\	(16bb-\LL	.	4F\	już	.	.	.	.	.	.	.
.	16ff\)	.	.	.	.	.	.	.	.	.	.
8dJ 8B- 8F\	(16ff\	.	.	.	.	.	.	.	.	.	.
.	16dd\JJ)	.	.	.	.	.	.	.	.	.	.
8dL 8B- 8F\	8dd'\L	.	4F\	nam	.	4B-\	-zda	.	4dd\	-zda	.
8d 8B- 8F\	(16bb-\L	.	.	.	.	.	.	.	.	.	.
.	16ff\JJ)	[	.	.	.	.	.	.	.	.	.
8d 8B- 8F\	(16ff\LL	.	4F\	po-	.	4r	.	.	4r	.	.
.	16dd\)	.	.	.	.	.	.	.	.	.	.
8dJ 8B- 8F\	(16dd\	.	.	.	.	.	.	.	.	.	.
.	16b-\JJ)	.	.	.	.	.	.	.	.	.	.
=123	=123	=123	=123	=123	=123	=123	=123	=123	=123	=123	=123
8cL 8B- 8G 8F\	8g\L	.	1F	-ły-	.	4r	.	.	4r	.	.
8c 8B- 8G 8F\	(16gg\L	.	.	.	.	.	.	.	.	.	.
.	16ff\JJ)	.	.	.	.	.	.	.	.	.	.
8c 8B- 8G 8F\	(16ff\LL	>	.	.	.	4B-\	smu-	.	4en/	już	.
.	16ee\)	.	.	.	.	.	.	.	.	.	.
8cJ 8B- 8G 8F\	(16ee\	.	.	.	.	.	.	.	.	.	.
.	16dd\JJ)	.	.	.	.	.	.	.	.	.	.
8cL 8B- 8G 8F\	(16dd\LL	.	.	.	.	4B-\	-tno	.	4e/	nam	.
.	16cc\)	.	.	.	.	.	.	.	.	.	.
8c 8B- 8G 8F\	(16cc\	.	.	.	.	.	.	.	.	.	.
.	16b-\JJ)	.	.	.	.	.	.	.	.	.	.
8c 8B- 8G 8F\	(16b-/LL	.	.	.	.	4B-\	po-	.	4e/	po-	.
.	16a/)	]]	.	.	.	.	.	.	.	.	.
8cJ 8B- 8G 8F\	(16a/	.	.	.	.	.	.	.	.	.	.
.	16g/JJ)	.	.	.	.	.	.	.	.	.	.
!!LO:LB:g=original
=124	=124	=124	=124	=124	=124	=124	=124	=124	=124	=124	=124
!	!	!LO:DY:b:rj	!	!	!	!	!	!	!	!	!
8cL 8A 8F\	8f/L	p	4F\	-ska	.	2A\	-łu-	.	2f/	-ły-	.
8c 8A 8F\	16g/L	.	.	.	.	.	.	.	.	.	.
.	16a/JJ	.	.	.	.	.	.	.	.	.	.
8c 8A 8F\	16b-\LL	.	4F\	wnet	.	.	.	.	.	.	.
.	16cc\	.	.	.	.	.	.	.	.	.	.
8cJ 8A 8F\	16dd\	.	.	.	.	.	.	.	.	.	.
.	16ee\JJ	.	.	.	.	.	.	.	.	.	.
8cL 8A 8F\	16ff\LL	.	4F\	z te-	.	4A\	-ska	.	4f/	-ska	.
.	16ff\	.	.	.	.	.	.	.	.	.	.
8c 8A 8F\	16gg\	.	.	.	.	.	.	.	.	.	.
.	16aa\JJ	.	.	.	.	.	.	.	.	.	.
8c 8A 8F\	16bb-\LL	.	4F\	-go	.	4r	.	.	4r	.	.
.	16ccc\	.	.	.	.	.	.	.	.	.	.
8cJ 8A 8F\	16ddd\	.	.	.	.	.	.	.	.	.	.
.	16eee\JJ	.	.	.	.	.	.	.	.	.	.
=125	=125	=125	=125	=125	=125	=125	=125	=125	=125	=125	=125
8cL 8A 8F\	8fff\L	.	1F	gnia-	.	4r	.	.	4r	.	.
8c 8A 8F\	(16eee-X\L	.	.	.	.	.	.	.	.	.	.
.	16ddd\JJ)	.	.	.	.	.	.	.	.	.	.
8c 8A 8F\	(16ddd\LL	.	.	.	.	4c\	Z bra-	.	4ee-X\	wnet	.
.	16ccc\)	.	.	.	.	.	.	.	.	.	.
8cJ 8A 8F\	(16ccc\	.	.	.	.	.	.	.	.	.	.
.	16bb-\JJ)	.	.	.	.	.	.	.	.	.	.
8cL 8A 8F\	(16bb-\LL	.	.	.	.	4c\	-tnie-	.	4ee-\	z te-	.
.	16aa\)	.	.	.	.	.	.	.	.	.	.
8c 8A 8F\	(16aa\	.	.	.	.	.	.	.	.	.	.
.	16gg\JJ)	.	.	.	.	.	.	.	.	.	.
8c 8A 8F\	(16gg\LL	.	.	.	.	4c\	-go	.	4ee-\	-go	.
.	16ff\)	.	.	.	.	.	.	.	.	.	.
8cJ 8A 8F\	(16ff\	.	.	.	.	.	.	.	.	.	.
.	16ee-X\JJ)	.	.	.	.	.	.	.	.	.	.
=126	=126	=126	=126	=126	=126	=126	=126	=126	=126	=126	=126
8dL 8B- 8F\	8dd\L	.	4F\	-zda	.	2c\	gnia-	.	2ee-X\	gnia-	.
8d 8B- 8F\	(16ddd\L	.	.	.	.	.	.	.	.	.	.
.	16bb-\JJ)	<	.	.	.	.	.	.	.	.	.
8d 8B- 8F\	(16bb-\LL	.	4F\	proch	.	.	.	.	.	.	.
.	16ff\)	.	.	.	.	.	.	.	.	.	.
8dJ 8B- 8F\	(16ff\	.	.	.	.	.	.	.	.	.	.
.	16dd\JJ)	.	.	.	.	.	.	.	.	.	.
8dL 8B- 8F\	(16dd\LL	.	4F\	i	.	4B-\	-zda	.	4dd\	-zda	.
.	16bb-\)	.	.	.	.	.	.	.	.	.	.
8d 8B- 8F\	(16bb-\	.	.	.	.	.	.	.	.	.	.
.	16ff\JJ)	[[	.	.	.	.	.	.	.	.	.
8d 8B- 8F\	(16ff\LL	.	4F\	zwa-	.	4r	.	.	4r	.	.
.	16dd\)	.	.	.	.	.	.	.	.	.	.
8dJ 8B- 8F\	(16dd\	.	.	.	.	.	.	.	.	.	.
.	16b-\JJ)	.	.	.	.	.	.	.	.	.	.
!!LO:PB:g=original
=127	=127	=127	=127	=127	=127	=127	=127	=127	=127	=127	=127
8cL 8B- 8G 8F\	8g\L	.	1F	-li-	.	4B-\	Proch	.	4en/	Proch	.
8c 8B- 8G 8F\	(16gg\L	.	.	.	.	.	.	.	.	.	.
.	16ff\JJ)	.	.	.	.	.	.	.	.	.	.
8c 8B- 8G 8F\	(16ff\LL	>	.	.	.	8B-\	i	.	8e/	i	.
.	16ee\)	.	.	.	.	.	.	.	.	.	.
8cJ 8B- 8G 8F\	(16ee\	.	.	.	.	8B-\	zwa-	.	8e/	zwa-	.
.	16dd\JJ)	.	.	.	.	.	.	.	.	.	.
8cL 8B- 8G 8F\	(16dd\LL	.	.	.	.	2B-\	-li-	.	2e/	-li-	.
.	16cc\)	.	.	.	.	.	.	.	.	.	.
8c 8B- 8G 8F\	(16cc\	.	.	.	.	.	.	.	.	.	.
.	16b-\JJ)	.	.	.	.	.	.	.	.	.	.
8c 8B- 8G 8F\	(16b-/LL	.	.	.	.	.	.	.	.	.	.
.	16a/)	.	.	.	.	.	.	.	.	.	.
8cJ 8B- 8G 8F\	(16a/	]	.	.	.	.	.	.	.	.	.
.	16g/JJ)	.	.	.	.	.	.	.	.	.	.
=128	=128	=128	=128	=128	=128	=128	=128	=128	=128	=128	=128
4c 4A 4F\	8f/L	<	4F\	-ska	.	8A\	-ska	.	8f/	-ska	.
.	8a 8f/	.	.	.	.	8F\	za-	.	8a/	a	.
4r	8b- 8g/	.	4r	.	.	8G\	-nim	.	8b-\	więc	.
.	8ccJ 8a/	[[	.	.	.	8A\	przy-	.	8cc\	przy-	.
8r	(2dd-X (2b-^\	.	8r	.	.	2B-\	-mie-	.	2dd-X\	-mie-	.
8d-XL 8B- 8G 8E^<\	.	.	8E\	A	.	.	.	.	.	.	.
8d- 8B- 8G 8E\	.	.	8E\	więc	.	.	.	.	.	.	.
8d-J 8B- 8G 8E\	.	.	8E\	przy-	.	.	.	.	.	.	.
=129	=129	=129	=129	=129	=129	=129	=129	=129	=129	=129	=129
4c 4A 4F\	8ccL 8a/))	<	8F\	-mie-	.	8B-\	-rze	.	8cc\	-rze	.
.	8a 8f/	.	8F\	-rze	.	8F\	za-	.	8a/	za-	.
4r	8b- 8g/	.	4r	.	.	8G\	-wrze-	.	8b-\	-wrzyj-	.
.	8ccJ 8a/	[[	.	.	.	8A\	-my	.	8cc\	-my	.
8r	(2dd-X (2b-^\	.	8r	.	.	2B-\	szcze-	.	2dd-X\	szcze-	.
8d-XL 8B- 8E\	.	.	8E\	za-	.	.	.	.	.	.	.
8d- 8B- 8E\	.	.	8E\	-rzyj-	.	.	.	.	.	.	.
8d-J 8B- 8E\	.	.	8E\	-wmy	.	.	.	.	.	.	.
!!LO:LB:g=original
=130	=130	=130	=130	=130	=130	=130	=130	=130	=130	=130	=130
!	!	!	!	!	!	!LO:SIC:v:s=8B-\	!	!	!	!	!
8cL 8A 8F\	4cc 4a/))	<	8F\	szcze-	.	8G\	-rze	.	8cc\	-rze	.
8A 8F\	.	.	8F\	-rze	.	8F\	niech	.	8a/	a	.
8B- 8G\	4r	.	4r	.	.	8G\	w I-	.	8b-\	w I-	.
8cJ 8A\	.	[[	.	.	.	8A\	-mie	.	8cc\	-mie	.
8d-XL 8B-\	(8.ddd-X^<\L	>	8r	.	.	2B-\	Bo-	.	2dd-X^\	Bo-	.
8d- 8B- 8G 8E\	.	.	8E\	a	.	.	.	.	.	.	.
.	16bb-\Jk	]]	.	.	.	.	.	.	.	.	.
8d- 8B- 8G 8E\	16gg\LL	.	8E\	w I-	.	.	.	.	.	.	.
.	16ee\	.	.	.	.	.	.	.	.	.	.
8d-J 8B- 8G 8E\	16dd-X\	.	8E\	-mie	.	.	.	.	.	.	.
.	16b-\JJ)	.	.	.	.	.	.	.	.	.	.
=131	=131	=131	=131	=131	=131	=131	=131	=131	=131	=131	=131
8cL 8A 8F\	4a/	.	8F\	Bo-	.	8A\	-ga	.	8cc\	-ga	.
8A 8F\	.	.	8F\	-ga	.	8F\	pierzch-	.	8a/	zwy-	.
8B- 8G\	4r	.	4r	.	.	8G\	-nie	.	8b-\	-cię-	.
8cJ 8A\	.	.	.	.	.	8A\	ma	.	8cc\	-żym	.
8d-XL 8B- 8G\	8.ddd-X^<\L	.	8r	.	.	2B-\	trwo-	.	2dd-X\	wro-	.
8d- 8B- 8G 8E\	.	.	8E\	zwy-	.	.	.	.	.	.	.
.	16bb-\Jk	.	.	.	.	.	.	.	.	.	.
8d- 8B- 8G 8E\	16gg\LL	.	8E\	-cię-	.	.	.	.	.	.	.
.	16ee\	.	.	.	.	.	.	.	.	.	.
8d-J 8B- 8G 8E\	16dd-X\	.	8E\	-żym	.	.	.	.	.	.	.
.	16b-\JJ	.	.	.	.	.	.	.	.	.	.
=132	=132	=132	=132	=132	=132	=132	=132	=132	=132	=132	=132
4c 4A 4F\	4a/	.	8F\	wro-	.	4A\	-ga	.	4cc\	-ga	.
.	.	.	8F\	-ga	.	.	.	.	.	.	.
8AL 8F\	(8aL 8f/	f <	4r	.	.	(8F\L	niech	.	(8a\L	zwy-	.
8B-J 8G\	8b-J 8g/	.	.	.	.	8G\J)	.	.	8b-\J)	.	.
8cL 8A\	8ccL 8a/	.	2r	.	.	(8A\L	w I-	.	(8cc\L	-cię-	.
8BnJ 8G#X\	8bnJ 8g#X/	[[	.	.	.	8G#X\J)	.	.	8bn\J)	.	.
!LO:SIC:v:s=8eL 8c\	!	!	!	!	!	!	!	!	!	!	!
8eL 8c 8A\	8ccL 8a\	.	.	.	.	(8A\L	-mie	.	(8cc\L	-żym	.
8dJ 8B-X\	8ddJ 8b-X\)	.	.	.	.	8B-\J)	.	.	8dd\J)	.	.
!!LO:LB:g=original
=133	=133	=133	=133	=133	=133	=133	=133	=133	=133	=133	=133
2e-X 2c\	2ee-X 2cc\	.	2r	.	.	2c\	Bo-	.	2ee-X\	wro-	f
2A-X 2AA-X\	2ee- 2cc 2a-X\	.	2A-X\	Zwy-	.	2c\	-ga	.	4ee-\	-ga	.
.	.	.	.	.	.	.	.	.	4ee-\	zwy-	.
=134	=134	=134	=134	=134	=134	=134	=134	=134	=134	=134	=134
!	!	!LO:DY:b:rj	!	!	!	!	!	!	!	!	!
2d-X 2D-X\	2ff 2dd-X 2a-X\	fz	2d-X\	-cię-	.	2d-X\	pierzch-	.	2ff\	-cię-	.
2F 2FF/	2cc 2an 2f/	fz	2F\	-żym	.	2An\	-nie	.	2cc\	-żym	.
=135	=135	=135	=135	=135	=135	=135	=135	=135	=135	=135	=135
2B- 2BB-\	2dd-X 2b- 2f/	.	2B-\	wro-	.	2B-\	trwo-	.	2dd-X\	wro-	.
2B- 2BB-\	2gg 2eenX 2cc\	.	4En\	-ga	.	4B-\	-ga	.	4g/	-ga	.
.	.	.	4E\	zwy-	.	4B-\	ma	.	4g/	zwy-	.
=136	=136	=136	=136	=136	=136	=136	=136	=136	=136	=136	=136
4A 4AA\	16ffLL 16cc\	.	4F\	-cię-	.	4A\	pierzch-	.	4cc\	-cię-	.
.	16ccc\	.	.	.	.	.	.	.	.	.	.
.	16ff 16cc\	.	.	.	.	.	.	.	.	.	.
.	16ccc\JJ	.	.	.	.	.	.	.	.	.	.
*	*tremolo	*	*	*	*	*	*	*	*	*	*
!	!LO:TX:a:i:t=simile	!	!	!	!	!	!	!	!	!	!
4B- 4BB-\	16bb-LL 16gg 16dd\	.	4B-\	-żym	.	4d\	-nie	.	4b-\	-żym	.
.	16bb- 16gg 16dd\	.	.	.	.	.	.	.	.	.	.
.	16bb- 16gg 16dd\	.	.	.	.	.	.	.	.	.	.
.	16bb-JJ 16gg 16dd\	.	.	.	.	.	.	.	.	.	.
4c 4C\	16aaLL 16ff 16cc\	.	(4c\	wro-	.	(4c\	trwo-	.	(>4a/	wro-	.
.	16aa 16ff 16cc\	.	.	.	.	.	.	.	.	.	.
.	16aa 16ff 16cc\	.	.	.	.	.	.	.	.	.	.
.	16aaJJ 16ff 16cc\	.	.	.	.	.	.	.	.	.	.
4C 4CC/	16ggLL 16ee 16b-\	.	4C/)	.	.	4B-\)	.	.	4g/)	.	.
.	16gg 16ee 16b-\	.	.	.	.	.	.	.	.	.	.
.	16gg 16ee 16b-\	.	.	.	.	.	.	.	.	.	.
.	16ggJJ 16ee 16b-\	.	.	.	.	.	.	.	.	.	.
*	*Xtremolo	*	*	*	*	*	*	*	*	*	*
=137	=137	=137	=137	=137	=137	=137	=137	=137	=137	=137	=137
!	!	!	!	!	!	!	!	!	!	!	!LO:HP:a
4F 4FF/	8ffL 8cc 8a\	<	4F\	-ga	.	8A\	-ga	.	8f/	-ga	<
.	8a 8f\	.	.	.	.	8F\	za-	.	8a/	a	.
4r	8b- 8g\	.	4r	.	.	8G\	-nim	.	8b-\	więc	.
.	8ccJ 8a\	[[	.	.	.	8A\	przy-	.	8cc\	przy-	[[
!	!	!	!	!	!	!	!	!	!	!	!LO:HP:a
8r	((2dd-X 2b-^\	>]	8r	.	.	2B-\	-mie-	.	2dd-X\	-mie-	.
!LO:SIC:v:s=8d-L 8B- 8G 8E\	!	!	!	!	!	!	!	!	!	!	!
8dL 8B- 8G 8E\	.	.	8E\	a	.	.	.	.	.	.	>
!LO:SIC:v:s=8d- 8B- 8G 8E\	!	!	!	!	!	!	!	!	!	!	!
8d 8B- 8G 8E\	.	.	8E\	więc	.	.	.	.	.	.	.
!LO:SIC:v:s=8d-J 8B- 8G 8E\	!	!	!	!	!	!	!	!	!	!	!
8dJ 8B- 8G 8E\	.	.	8E\	przy-	.	.	.	.	.	.	]]
!!LO:PB:g=original
=138	=138	=138	=138	=138	=138	=138	=138	=138	=138	=138	=138
!	!LO:TX:t=P:problem:brak zakończenia łuków	!	!	!	!	!	!	!	!	!	!LO:HP:a
4c 4A 4F\	8ccL 8a/))	<	8F\	-mie-	.	8A\	-rze	.	8cc\	-rze	<
.	8a 8f/	.	8F\	-rze	.	8F\	za-	.	8a/	zaw-	.
4r	8b- 8g/	.	4r	.	.	8G\	-wrze-	.	8b-\	-rzyj-	.
.	8ccJ 8a/	[[	.	.	.	8A\	-my	.	8cc\	-my	[
!	!	!	!	!	!	!	!	!	!	!	!LO:HP:a
8r	(2dd-X (2b-^\	>	8r	.	.	2B-\	szcze-	.	2dd-X\	szcze-	>]
8d-XL 8B- 8G 8E\	.	.	8E\	za-	.	.	.	.	.	.	.
8d- 8B- 8G 8E\	.	.	8E\	-wrzyj-	.	.	.	.	.	.	.
8d-J 8B- 8G 8E\	.	]]	8E\	-my	.	.	.	.	.	.	.
=139	=139	=139	=139	=139	=139	=139	=139	=139	=139	=139	=139
8cL 8A 8F\	8ccL 8a/))	<	8F\	szcze-	.	8A\	-rze	.	8cc\	-rze	.
8A 8F\	8a 8f/	.	8F\	-rze	.	8F\	niech	.	8a/	a	.
8B- 8G\	8b- 8g/	.	4r	.	.	8G\	w i-	.	8b-\	w i-	.
8cJ 8A\	8ccJ 8a/	[	.	.	.	8A\	-mie	.	8cc\	-mie	.
8d-X 8B-\	8dd-XL 8b-\	.	8r	.	.	2B-\	Bo-	.	2dd-X\	Bo-	.
8d-L 8B- 8G 8E^<\	(16ddd-X\L	.	8E\	a	.	.	.	.	.	.	.
.	16bb-\JJ	.	.	.	.	.	.	.	.	.	.
8d- 8B- 8G 8E\	16gg\LL	.	8E\	w i-	.	.	.	.	.	.	.
.	16een\	.	.	.	.	.	.	.	.	.	.
8d-J 8B- 8G 8E\	16dd-X\	.	8E\	-mie	.	.	.	.	.	.	.
.	16b-\JJ	.	.	.	.	.	.	.	.	.	.
=140	=140	=140	=140	=140	=140	=140	=140	=140	=140	=140	=140
8cL 8A 8F\	4a/)	<	8F\	Bo-	.	8A\	-ga	.	8cc\	-ga	.
8A 8F\	.	.	8F\	-ga	.	8F\	pierzch-	.	8a/	zwy-	.
8B- 8G\	4r	.	4r	.	.	8G\	-nie	.	8b-\	-cię-	.
8cJ 8A\	.	.	.	.	.	8A\	ma	.	8cc\	-żym	.
8d-X 8B-\	(8.ddd-X\L	[>	8r	.	.	2B-\	trwo-	.	2dd-X\	wro-	.
8d-L 8B- 8G 8E\	.	.	8E\	zwy-	.	.	.	.	.	.	.
.	16bb-\Jk	]]	.	.	.	.	.	.	.	.	.
8d- 8B- 8G 8E\	16gg\LL	.	8E\	-cię-	.	.	.	.	.	.	.
.	16ee\	.	.	.	.	.	.	.	.	.	.
8d-J 8B- 8G 8E\	16dd-X\	.	8E\	-żym	.	.	.	.	.	.	.
.	16b-\JJ	.	.	.	.	.	.	.	.	.	.
!!LO:LB:g=original
=141	=141	=141	=141	=141	=141	=141	=141	=141	=141	=141	=141
4c 4A\	4a/)	.	8F\	wro-	.	4A\	-ga	.	4cc\	-ga	.
.	.	.	8F\	-ga	.	.	.	.	.	.	.
(8AL 8F\	4r	.	4r	.	.	(8F\L	niech	.	(8a/L	zwy-	.
8B-J 8G\)	.	.	.	.	.	8G\J)	.	.	8b-/J)	.	.
(8cL 8A\	(8ccL 8a/	.	2r	.	.	(8A\L	w i-	.	(8cc\L	-cię-	.
8BnJ 8G#X\)	8bnJ 8g#X/)	.	.	.	.	8G#X\J)	.	.	8bn\J)	.	.
(8cL 8A\	(8ccL 8a\	.	.	.	.	(8A\L	-mie	.	(8cc\L	-żym	.
8dnJ 8B-X\)	8ddnJ 8b-X\)	.	.	.	.	8B-\J)	.	.	8dd\J)	.	.
=142	=142	=142	=142	=142	=142	=142	=142	=142	=142	=142	=142
2e-X 2c\	2ee-X 2cc\	.	2r	.	.	2c\	Bo-	.	2ee-X\	wro-	.
!	!	!LO:DY:b:rj	!	!	!	!	!	!	!	!	!
2A-X 2AA-X\	2ee- 2cc 2a-X\	fz	2A-X\	zwy-	.	2c\	-ga	.	4ee-\	-ga	.
.	.	.	.	.	.	.	.	.	4ee-\	zwy-	.
=143	=143	=143	=143	=143	=143	=143	=143	=143	=143	=143	=143
!	!	!LO:DY:b:rj	!	!	!	!	!	!	!	!	!
2d-X 2D-X\	2ff 2dd-X 2a-X\	fz	2d-X\	-cię-	.	2d-X\	pierzch-	.	2ff\	-cię-	.
!	!	!LO:DY:b:rj	!	!	!	!	!	!	!	!	!
2F 2FF/	2cc 2an 2f/	fz	2F\	-żym	.	2An\	-nie	.	2cc\	-żym	.
=144	=144	=144	=144	=144	=144	=144	=144	=144	=144	=144	=144
!	!	!LO:DY:b:rj	!	!	!	!	!	!	!	!	!
2B- 2BB-\	2dd-X 2b- 2f/	fz	2B-\	wro-	.	2B-\	trwo-	.	2dd-X\	wro-	.
!	!	!LO:DY:b:rj	!	!	!	!	!	!	!	!	!
2B- 2BB-\	2gg 2een 2cc\	fz	4En\	-ga	.	4B-\	-ga	.	4g/	-ga	.
.	.	.	4E\	zwy-	.	4B-\	ma	.	4g/	zwy-	.
=145	=145	=145	=145	=145	=145	=145	=145	=145	=145	=145	=145
4A 4AA\	16ffLL 16cc\	.	4F\	-cię-	.	4A\	pierzch-	.	(4cc\	-cię-	.
.	16ccc\	.	.	.	.	.	.	.	.	.	.
.	16ff 16cc\	.	.	.	.	.	.	.	.	.	.
.	16ccc\JJ	.	.	.	.	.	.	.	.	.	.
*	*tremolo	*	*	*	*	*	*	*	*	*	*
4B- 4BB-\	16bb-LL 16gg 16dd\	.	4B-\	-żym	.	4d\	-nie	.	4b-\	-żym	.
.	16bb- 16gg 16dd\	.	.	.	.	.	.	.	.	.	.
.	16bb- 16gg 16dd\	.	.	.	.	.	.	.	.	.	.
.	16bb-JJ 16gg 16dd\	.	.	.	.	.	.	.	.	.	.
4c 4C\	16aaLL 16ff 16cc\	.	(4c\	wro-	.	2c\	trwo-	.	(>4a/)	wro-	.
.	16aa 16ff 16cc\	.	.	.	.	.	.	.	.	.	.
.	16aa 16ff 16cc\	.	.	.	.	.	.	.	.	.	.
.	16aaJJ 16ff 16cc\	.	.	.	.	.	.	.	.	.	.
4B- 4BB-\	16ggLL 16ee 16cc\	.	4B-\)	.	.	.	.	.	4g/)	.	.
.	16gg 16ee 16cc\	.	.	.	.	.	.	.	.	.	.
.	16gg 16ee 16cc\	.	.	.	.	.	.	.	.	.	.
.	16ggJJ 16ee 16cc\	.	.	.	.	.	.	.	.	.	.
=146	=146	=146	=146	=146	=146	=146	=146	=146	=146	=146	=146
*tremolo	*	*	*	*	*	*	*	*	*	*	*
8AL 8AA\	16cccLL 16ff 16cc\	.	2A\	-ga	.	2c\	-ga	.	2cc\	-ga	.
.	16ccc 16ff 16cc\	.	.	.	.	.	.	.	.	.	.
8A 8AA\	16ccc 16ff 16cc\	.	.	.	.	.	.	.	.	.	.
.	16ccc 16ff 16cc\	.	.	.	.	.	.	.	.	.	.
8A 8AA\	16ccc 16ff 16cc\	.	.	.	.	.	.	.	.	.	.
.	16ccc 16ff 16cc\	.	.	.	.	.	.	.	.	.	.
8AJ 8AA\	16ccc 16ff 16cc\	.	.	.	.	.	.	.	.	.	.
.	16cccJJ 16ff 16cc\	.	.	.	.	.	.	.	.	.	.
!	!LO:SIC:v:s=16ccc#XLL 16ff 16cc#\	!	!	!	!	!	!	!	!	!	!
8AL 8AA\	16ccc#XLL 16ff 16cc\	.	2A\	zwy-	.	2f\	niech	.	2cc#X\	zwy-	.
!	!LO:SIC:v:s=16ccc# 16ff 16cc#\	!	!	!	!	!	!	!	!	!	!
.	16ccc# 16ff 16cc\	.	.	.	.	.	.	.	.	.	.
!	!LO:SIC:v:s=16ccc# 16ff 16cc#\	!	!	!	!	!	!	!	!	!	!
8A 8AA\	16ccc# 16ff 16cc\	.	.	.	.	.	.	.	.	.	.
!	!LO:SIC:v:s=16ccc# 16ff 16cc#\	!	!	!	!	!	!	!	!	!	!
.	16ccc# 16ff 16cc\	.	.	.	.	.	.	.	.	.	.
!	!LO:SIC:v:s=16ccc# 16ff 16cc#\	!	!	!	!	!	!	!	!	!	!
8A 8AA\	16ccc# 16ff 16cc\	.	.	.	.	.	.	.	.	.	.
!	!LO:SIC:v:s=16ccc# 16ff 16cc#\	!	!	!	!	!	!	!	!	!	!
.	16ccc# 16ff 16cc\	.	.	.	.	.	.	.	.	.	.
!	!LO:SIC:v:s=16ccc# 16ff 16cc#\	!	!	!	!	!	!	!	!	!	!
8AJ 8AA\	16ccc# 16ff 16cc\	.	.	.	.	.	.	.	.	.	.
!	!LO:SIC:v:s=16ccc#JJ 16ff 16cc#\	!	!	!	!	!	!	!	!	!	!
.	16ccc#JJ 16ff 16cc\	.	.	.	.	.	.	.	.	.	.
!!LO:LB:g=original
=147	=147	=147	=147	=147	=147	=147	=147	=147	=147	=147	=147
8B-L 8BB-\	16dddLL 16ff 16dd\	.	2B-\	-cię-	.	2f\	pierzch-	.	2dd\	-cię-	.
.	16ddd 16ff 16dd\	.	.	.	.	.	.	.	.	.	.
8B- 8BB-\	16ddd 16ff 16dd\	.	.	.	.	.	.	.	.	.	.
.	16ddd 16ff 16dd\	.	.	.	.	.	.	.	.	.	.
8B- 8BB-\	16ddd 16ff 16dd\	.	.	.	.	.	.	.	.	.	.
.	16ddd 16ff 16dd\	.	.	.	.	.	.	.	.	.	.
8B-J 8BB-\	16ddd 16ff 16dd\	.	.	.	.	.	.	.	.	.	.
.	16dddJJ 16ff 16dd\	.	.	.	.	.	.	.	.	.	.
8BnL 8BBn\	16dddLL 16gg#X 16ff 16dd\	.	4.G#X\	-żym	.	4.d\	-nie	.	4.ff\	-żym	.
.	16ddd 16gg# 16ff 16dd\	.	.	.	.	.	.	.	.	.	.
8B 8BB\	16ddd 16gg# 16ff 16dd\	.	.	.	.	.	.	.	.	.	.
.	16ddd 16gg# 16ff 16dd\	.	.	.	.	.	.	.	.	.	.
8B 8BB\	16ddd 16gg# 16ff 16dd\	.	.	.	.	.	.	.	.	.	.
.	16ddd 16gg# 16ff 16dd\	.	.	.	.	.	.	.	.	.	.
8BJ 8BB\	16ddd 16gg# 16ff 16dd\	.	8G#\	zwy-	.	8d\	ma	.	8ff\	zwy-	.
.	16dddJJ 16gg# 16ff 16dd\	.	.	.	.	.	.	.	.	.	.
=148	=148	=148	=148	=148	=148	=148	=148	=148	=148	=148	=148
8cL 8C\	16cccLL 16aa 16ff\	.	2.A\	-cię-	.	[1c	trwo-	.	2ff\	-cię-	.
.	16ccc 16aa 16ff\	.	.	.	.	.	.	.	.	.	.
8c 8C\	16ccc 16aa 16ff\	.	.	.	.	.	.	.	.	.	.
.	16ccc 16aa 16ff\	.	.	.	.	.	.	.	.	.	.
8c 8C\	16ccc 16aa 16ff\	.	.	.	.	.	.	.	.	.	.
.	16ccc 16aa 16ff\	.	.	.	.	.	.	.	.	.	.
8c 8C\	16ccc 16aa 16ff\	.	.	.	.	.	.	.	.	.	.
.	16ccc 16aa 16ff\	.	.	.	.	.	.	.	.	.	.
8c 8C\	16ccc 16aa 16ff\	.	.	.	.	.	.	.	2cc\	-żym	.
.	16ccc 16aa 16ff\	.	.	.	.	.	.	.	.	.	.
8c 8C\	16ccc 16aa 16ff\	.	.	.	.	.	.	.	.	.	.
.	16ccc 16aa 16ff\	.	.	.	.	.	.	.	.	.	.
8c 8C\	16ccc 16aa 16ff\	.	4A\	-żym	.	.	.	.	.	.	.
.	16ccc 16aa 16ff\	.	.	.	.	.	.	.	.	.	.
8cJ 8C\	16ccc 16aa 16ff\	.	.	.	.	.	.	.	.	.	.
.	16cccJJ 16aa 16ff\	.	.	.	.	.	.	.	.	.	.
=149	=149	=149	=149	=149	=149	=149	=149	=149	=149	=149	=149
8CL 8CC/	16eeeLL 16ccc 16bb- 16gg\	.	2.E\	wro-	.	2.c\]	.	.	2.cc\	wro-	.
.	16eee 16ccc 16bb- 16gg\	.	.	.	.	.	.	.	.	.	.
8C 8CC/	16eee 16ccc 16bb- 16gg\	.	.	.	.	.	.	.	.	.	.
.	16eee 16ccc 16bb- 16gg\	.	.	.	.	.	.	.	.	.	.
8C 8CC/	16eee 16ccc 16bb- 16gg\	.	.	.	.	.	.	.	.	.	.
.	16eee 16ccc 16bb- 16gg\	.	.	.	.	.	.	.	.	.	.
8C 8CC/	16eee 16ccc 16bb- 16gg\	.	.	.	.	.	.	.	.	.	.
.	16eee 16ccc 16bb- 16gg\	.	.	.	.	.	.	.	.	.	.
8C 8CC/	16eee 16ccc 16bb- 16gg\	.	.	.	.	.	.	.	.	.	.
.	16eee 16ccc 16bb- 16gg\	.	.	.	.	.	.	.	.	.	.
8C 8CC/	16eee 16ccc 16bb- 16gg\	.	.	.	.	.	.	.	.	.	.
.	16eee 16ccc 16bb- 16gg\	.	.	.	.	.	.	.	.	.	.
8C 8CC/	16eee 16ccc 16bb- 16gg\	.	4G\	.	.	4B-\	.	.	4e/	.	.
.	16eee 16ccc 16bb- 16gg\	.	.	.	.	.	.	.	.	.	.
8CJ 8CC/	16eee 16ccc 16bb- 16gg\	.	.	.	.	.	.	.	.	.	.
.	16eeeJJ 16ccc 16bb- 16gg\	.	.	.	.	.	.	.	.	.	.
*	*Xtremolo	*	*	*	*	*	*	*	*	*	*
=150	=150	=150	=150	=150	=150	=150	=150	=150	=150	=150	=150
16AALL 16FF/	8fffL 8ccc 8aa\	.	2F\	-ga	.	2A\	-ga.	.	2f/	-ga	.
16C/	.	.	.	.	.	.	.	.	.	.	.
16AA 16FF/	8aa\J	.	.	.	.	.	.	.	.	.	.
16C/	.	.	.	.	.	.	.	.	.	.	.
16AA 16FF/	4.ccc^<\	.	.	.	.	.	.	.	.	.	.
16C/	.	.	.	.	.	.	.	.	.	.	.
16AA 16FF/	.	.	.	.	.	.	.	.	.	.	.
16C/JJ	.	.	.	.	.	.	.	.	.	.	.
16AALL 16FF/	.	.	2r	.	.	2r	.	.	2r	.	.
16C/	.	.	.	.	.	.	.	.	.	.	.
16AA 16FF/	8ff\	.	.	.	.	.	.	.	.	.	.
16C/	.	.	.	.	.	.	.	.	.	.	.
16AA 16FF/	[4aa^<\	.	.	.	.	.	.	.	.	.	.
16C/	.	.	.	.	.	.	.	.	.	.	.
16AA 16FF/	.	.	.	.	.	.	.	.	.	.	.
16C/JJ	.	.	.	.	.	.	.	.	.	.	.
=151	=151	=151	=151	=151	=151	=151	=151	=151	=151	=151	=151
16AALL 16FF/	8aa\L]	.	1r	.	.	1r	.	.	1r	.	.
16C/	.	.	.	.	.	.	.	.	.	.	.
16AA 16FF/	8cc\	.	.	.	.	.	.	.	.	.	.
16C/	.	.	.	.	.	.	.	.	.	.	.
16AA 16FF/	8ff\	.	.	.	.	.	.	.	.	.	.
16C/	.	.	.	.	.	.	.	.	.	.	.
16AA 16FF/	8a\J	.	.	.	.	.	.	.	.	.	.
16C/JJ	.	.	.	.	.	.	.	.	.	.	.
16AALL 16FF/	8cc/L	.	.	.	.	.	.	.	.	.	.
16C/	.	.	.	.	.	.	.	.	.	.	.
16AA 16FF/	8f/	.	.	.	.	.	.	.	.	.	.
16C/	.	.	.	.	.	.	.	.	.	.	.
16AA 16FF/	8a/	.	.	.	.	.	.	.	.	.	.
16C/	.	.	.	.	.	.	.	.	.	.	.
16AA 16FF/	8c/J	.	.	.	.	.	.	.	.	.	.
16C/JJ	.	.	.	.	.	.	.	.	.	.	.
*Xtremolo	*	*	*	*	*	*	*	*	*	*	*
=152	=152	=152	=152	=152	=152	=152	=152	=152	=152	=152	=152
4AA 4FF/	4f/	.	1r	.	.	1r	.	.	1r	.	.
8.r	8.r	.	.	.	.	.	.	.	.	.	.
16F 16FF/	16f 16c 16A/	.	.	.	.	.	.	.	.	.	.
4C 4CC/	4f 4c 4A/	.	.	.	.	.	.	.	.	.	.
4AA 4AAA/	4f 4c 4A/	.	.	.	.	.	.	.	.	.	.
=153	=153	=153	=153	=153	=153	=153	=153	=153	=153	=153	=153
4FF 4FFF/	4f 4c 4A/	.	1r	.	.	1r	.	.	1r	.	.
4r	4r	.	.	.	.	.	.	.	.	.	.
4F 4FF/	4aa 4ff 4cc 4a\	.	.	.	.	.	.	.	.	.	.
4r	4r	.	.	.	.	.	.	.	.	.	.
=154	=154	=154	=154	=154	=154	=154	=154	=154	=154	=154	=154
!	!	!	!LO:TX:a:B:t=D. ALONZO.	!	!	!	!	!	!	!	!
2FF 2FFF/	2f 2A/	.	2r;	.	.	1r	.	.	1r	.	.
2r	2r	.	4r	.	.	.	.	.	.	.	.
.	.	.	8r	.	.	.	.	.	.	.	.
.	.	.	8A\	Pe-	.	.	.	.	.	.	.
==	==	==	==	==	==	==	==	==	==	==	==
*-	*-	*-	*-	*-	*-	*-	*-	*-	*-	*-	*-
!!!system-decoration: s1,s2,s3{(s4,s5)}
!!!RDF**kern: > = above
!!!RDF**kern: < = below
!!!RDF**kern: N = linked
!!!ENC: Mateusz Solarz
!!!END: 2022-09-19
!!!ENC: Katarzyna Serwa
!!!END: 2022-10-30
